;FLAVOR:Marlin
;TIME:11199
;Filament used: 5.53224m
;Layer height: 0.2
;MINX:58.711
;MINY:89.831
;MINZ:0.24
;MAXX:176.289
;MAXY:146.082
;MAXZ:36.69
;Generated with Cura_SteamEngine 4.10.0
M140 S80
M105
M190 S80
M104 S225
M105
M109 S225
M82 ;absolute extrusion mode
; Ender 3 Custom Start G-code
G92 E0 ; Reset Extruder
G28 ; Home all axes
G1 Z2.0 F3000 ; Move Z Axis up little to prevent scratching of Heat Bed
G1 X0.1 Y20 Z0.3 F5000.0 ; Move to start position
G1 X0.1 Y200.0 Z0.3 F1500.0 E15 ; Draw the first line
G1 X0.4 Y200.0 Z0.3 F5000.0 ; Move to side a little
G1 X0.4 Y20 Z0.3 F1500.0 E30 ; Draw the second line
G92 E0 ; Reset Extruder
G1 Z2.0 F3000 ; Move Z Axis up little to prevent scratching of Heat Bed
G1 X5 Y20 Z0.3 F5000.0 ; Move over to prevent blob squish
G92 E0
G92 E0
G1 F2700 E-5
;LAYER_COUNT:180
;LAYER:-5
M107
G0 F9000 X62.025 Y96.627 Z0.24
;TYPE:SUPPORT-INTERFACE
G1 F2700 E0
G1 F1125 X62.293 Y96.469 E0.02483
G1 X62.55 Y96.339 E0.04782
G1 X62.82 Y96.223 E0.07128
G1 X63.076 Y96.131 E0.093
G1 X63.368 Y96.047 E0.11725
G1 X63.629 Y95.991 E0.13856
G1 X63.949 Y95.943 E0.16439
G1 X64.417 Y95.907 E0.20186
G1 X64.609 Y95.9 E0.21719
G1 X73.47 Y95.9 E0.92452
G1 X73.905 Y95.908 E0.95925
G1 X73.905 Y95.927 E0.96076
G1 X74.602 Y95.9 E1.01644
G1 X91.426 Y95.9 E2.35941
G1 X92.094 Y95.858 E2.41283
G1 X92.765 Y95.729 E2.46738
G1 X93.414 Y95.516 E2.5219
G1 X94.031 Y95.224 E2.57639
G1 X94.608 Y94.855 E2.63106
G1 X95.221 Y94.33 E2.69549
G1 X95.242 Y94.309 E2.69786
G1 X95.682 Y93.808 E2.75108
G1 X95.959 Y93.415 E2.78946
G1 X96.196 Y93.043 E2.82467
G1 X96.394 Y92.777 E2.85114
G1 X96.698 Y92.423 E2.88839
G1 X96.913 Y92.204 E2.91289
G1 X97.208 Y91.945 E2.94422
G1 X97.423 Y91.778 E2.96596
G1 X97.654 Y91.622 E2.98821
G1 X97.922 Y91.464 E3.01304
G1 X98.188 Y91.329 E3.03685
G1 X98.428 Y91.226 E3.0577
G1 X98.718 Y91.122 E3.08229
G1 X98.997 Y91.042 E3.10546
G1 X99.258 Y90.986 E3.12677
G1 X99.578 Y90.938 E3.1526
G1 X100.045 Y90.902 E3.18999
G1 X100.237 Y90.895 E3.20532
G1 X104.774 Y90.894 E3.56749
G1 X104.964 Y90.9 E3.58266
G1 X105.309 Y90.922 E3.61026
G1 X105.604 Y90.959 E3.63399
G1 X105.908 Y91.017 E3.65869
G1 X106.165 Y91.084 E3.67989
G1 X106.443 Y91.175 E3.70324
G1 X106.718 Y91.284 E3.72686
G1 X106.975 Y91.406 E3.74956
G1 X107.241 Y91.554 E3.77386
G1 X107.462 Y91.696 E3.79483
G1 X107.722 Y91.888 E3.82063
G1 X108.098 Y92.209 E3.8601
G1 X108.291 Y92.403 E3.88194
G1 X108.55 Y92.698 E3.91328
G1 X108.707 Y92.9 E3.9337
G1 X108.874 Y93.146 E3.95743
G1 X108.933 Y93.246 E3.9667
G1 X109.308 Y93.801 E4.02017
G1 X109.759 Y94.314 E4.07469
G1 X110.27 Y94.766 E4.12915
G1 X110.835 Y95.149 E4.18364
G1 X111.444 Y95.459 E4.23819
G1 X112.087 Y95.689 E4.2927
G1 X112.756 Y95.838 E4.34741
G1 X113.568 Y95.9 E4.41241
G1 X121.426 Y95.9 E5.03967
G1 X122.094 Y95.858 E5.0931
G1 X122.765 Y95.729 E5.14765
G1 X123.414 Y95.516 E5.20217
G1 X124.031 Y95.224 E5.25666
G1 X124.608 Y94.855 E5.31133
G1 X125.221 Y94.33 E5.37576
G1 X125.242 Y94.309 E5.37813
G1 X125.682 Y93.808 E5.43135
G1 X125.959 Y93.415 E5.46973
G1 X126.196 Y93.043 E5.50494
G1 X126.394 Y92.777 E5.53141
G1 X126.698 Y92.423 E5.56866
G1 X126.913 Y92.204 E5.59316
G1 X127.208 Y91.945 E5.62449
G1 X127.423 Y91.778 E5.64622
G1 X127.654 Y91.622 E5.66847
G1 X127.922 Y91.464 E5.69331
G1 X128.188 Y91.329 E5.71712
G1 X128.428 Y91.226 E5.73797
G1 X128.718 Y91.122 E5.76256
G1 X128.997 Y91.042 E5.78573
G1 X129.258 Y90.986 E5.80704
G1 X129.578 Y90.938 E5.83287
G1 X130.045 Y90.902 E5.87025
G1 X130.237 Y90.895 E5.88559
G1 X134.774 Y90.894 E6.24775
G1 X134.964 Y90.9 E6.26293
G1 X135.309 Y90.922 E6.29052
G1 X135.604 Y90.959 E6.31426
G1 X135.908 Y91.017 E6.33896
G1 X136.165 Y91.084 E6.36016
G1 X136.443 Y91.175 E6.38351
G1 X136.718 Y91.284 E6.40712
G1 X136.975 Y91.406 E6.42983
G1 X137.241 Y91.554 E6.45413
G1 X137.462 Y91.696 E6.4751
G1 X137.722 Y91.888 E6.5009
G1 X138.098 Y92.209 E6.54036
G1 X138.291 Y92.403 E6.56221
G1 X138.55 Y92.698 E6.59354
G1 X138.707 Y92.9 E6.61397
G1 X138.874 Y93.146 E6.6377
G1 X138.933 Y93.246 E6.64697
G1 X139.308 Y93.801 E6.70044
G1 X139.759 Y94.314 E6.75496
G1 X140.27 Y94.766 E6.80942
G1 X140.835 Y95.149 E6.86391
G1 X141.444 Y95.459 E6.91845
G1 X142.087 Y95.689 E6.97297
G1 X142.756 Y95.838 E7.02768
G1 X143.568 Y95.9 E7.09268
G1 X160.43 Y95.9 E8.43868
G1 X160.648 Y95.91 E8.4561
G1 X161.211 Y95.915 E8.50104
G1 X161.556 Y95.9 E8.52861
G1 X170.432 Y95.9 E9.23713
G1 X170.558 Y95.904 E9.24719
G1 X170.935 Y95.928 E9.27735
G1 X171.233 Y95.965 E9.30132
G1 X171.517 Y96.02 E9.32441
G1 X171.808 Y96.096 E9.34842
G1 X172.066 Y96.18 E9.37008
G1 X172.345 Y96.291 E9.39404
G1 X172.603 Y96.413 E9.41683
G1 X172.862 Y96.557 E9.44048
G1 X173.081 Y96.696 E9.46119
G1 X173.347 Y96.894 E9.48766
G1 X173.701 Y97.198 E9.5249
G1 X173.916 Y97.409 E9.54895
G1 X174.175 Y97.704 E9.58029
G1 X174.342 Y97.919 E9.60202
G1 X174.498 Y98.15 E9.62427
G1 X174.656 Y98.418 E9.6491
G1 X174.788 Y98.677 E9.67231
G1 X174.891 Y98.916 E9.69308
G1 X174.996 Y99.208 E9.71785
G1 X175.077 Y99.49 E9.74127
G1 X175.133 Y99.744 E9.76203
G1 X175.182 Y100.074 E9.78866
G1 X175.218 Y100.535 E9.82558
G1 X175.225 Y100.72 E9.84035
G1 X175.225 Y102.307 E9.96703
G1 X175.221 Y102.433 E9.9771
G1 X175.197 Y102.81 E10.00725
G1 X175.16 Y103.108 E10.03122
G1 X175.105 Y103.392 E10.05431
G1 X175.029 Y103.683 E10.07832
G1 X174.945 Y103.941 E10.09998
G1 X174.834 Y104.22 E10.12395
G1 X174.712 Y104.478 E10.14673
G1 X174.568 Y104.737 E10.17039
G1 X174.429 Y104.956 E10.19109
G1 X174.231 Y105.222 E10.21756
G1 X173.927 Y105.576 E10.25481
G1 X173.716 Y105.791 E10.27885
G1 X173.423 Y106.048 E10.30997
G1 X173.206 Y106.217 E10.33192
G1 X172.975 Y106.373 E10.35417
G1 X172.707 Y106.531 E10.37901
G1 X172.45 Y106.661 E10.402
G1 X172.181 Y106.776 E10.42535
G1 X171.924 Y106.869 E10.44716
G1 X171.632 Y106.953 E10.47142
G1 X171.371 Y107.009 E10.49273
G1 X171.05 Y107.057 E10.51864
G1 X170.563 Y107.094 E10.55762
G1 X170.407 Y107.101 E10.57009
G1 X169.741 Y107.169 E10.62353
G1 X169.075 Y107.322 E10.67807
G1 X168.434 Y107.56 E10.73265
G1 X167.829 Y107.875 E10.7871
G1 X167.269 Y108.265 E10.84158
G1 X166.761 Y108.722 E10.89612
G1 X166.316 Y109.24 E10.95063
G1 X165.94 Y109.81 E11.00514
G1 X165.638 Y110.422 E11.05962
G1 X165.416 Y111.068 E11.11414
G1 X165.278 Y111.738 E11.16875
G1 X165.225 Y112.482 E11.22829
G1 X165.225 Y140.307 E13.4494
G1 X165.221 Y140.433 E13.45946
G1 X165.197 Y140.81 E13.48962
G1 X165.16 Y141.108 E13.51359
G1 X165.105 Y141.392 E13.53668
G1 X165.029 Y141.683 E13.56069
G1 X164.945 Y141.941 E13.58235
G1 X164.834 Y142.22 E13.60632
G1 X164.712 Y142.478 E13.6291
G1 X164.568 Y142.737 E13.65275
G1 X164.429 Y142.956 E13.67346
G1 X164.231 Y143.222 E13.69993
G1 X163.927 Y143.576 E13.73717
G1 X163.716 Y143.791 E13.76122
G1 X163.423 Y144.048 E13.79233
G1 X163.206 Y144.217 E13.81429
G1 X162.975 Y144.373 E13.83654
G1 X162.707 Y144.531 E13.86137
G1 X162.45 Y144.661 E13.88436
G1 X162.181 Y144.776 E13.90771
G1 X161.924 Y144.869 E13.92953
G1 X161.632 Y144.953 E13.95378
G1 X161.371 Y145.009 E13.97509
G1 X161.051 Y145.057 E14.00092
G1 X160.583 Y145.093 E14.03839
G1 X160.391 Y145.1 E14.05373
G1 X74.568 Y145.1 E20.90449
G1 X74.442 Y145.096 E20.91455
G1 X74.065 Y145.072 E20.94471
G1 X73.767 Y145.035 E20.96868
G1 X73.483 Y144.98 E20.99177
G1 X73.192 Y144.904 E21.01578
G1 X72.932 Y144.819 E21.03761
G1 X72.655 Y144.709 E21.0614
G1 X72.396 Y144.586 E21.08429
G1 X72.138 Y144.443 E21.10784
G1 X71.919 Y144.304 E21.12854
G1 X71.653 Y144.106 E21.15501
G1 X71.299 Y143.802 E21.19226
G1 X71.084 Y143.591 E21.21631
G1 X70.825 Y143.296 E21.24764
G1 X70.658 Y143.081 E21.26937
G1 X70.499 Y142.845 E21.29209
G1 X70.344 Y142.582 E21.31646
G1 X70.214 Y142.325 E21.33945
G1 X70.098 Y142.055 E21.36291
G1 X70.006 Y141.799 E21.38462
G1 X69.922 Y141.507 E21.40887
G1 X69.866 Y141.246 E21.43018
G1 X69.818 Y140.926 E21.45601
G1 X69.781 Y140.448 E21.49428
G1 X69.775 Y140.28 E21.5077
G1 X69.775 Y112.483 E23.72658
G1 X69.733 Y111.815 E23.78001
G1 X69.604 Y111.144 E23.83455
G1 X69.391 Y110.495 E23.88907
G1 X69.099 Y109.878 E23.94356
G1 X68.731 Y109.303 E23.99806
G1 X68.293 Y108.779 E24.05257
G1 X67.793 Y108.315 E24.10702
G1 X67.237 Y107.916 E24.16165
G1 X66.637 Y107.592 E24.21608
G1 X66.001 Y107.346 E24.27052
G1 X65.335 Y107.181 E24.32529
G1 X64.553 Y107.099 E24.38805
G1 X64.414 Y107.094 E24.39915
G1 X64.066 Y107.072 E24.42699
G1 X63.767 Y107.035 E24.45104
G1 X63.483 Y106.98 E24.47413
G1 X63.192 Y106.904 E24.49814
G1 X62.932 Y106.819 E24.51997
G1 X62.655 Y106.709 E24.54376
G1 X62.396 Y106.586 E24.56665
G1 X62.138 Y106.443 E24.5902
G1 X61.919 Y106.304 E24.6109
G1 X61.653 Y106.106 E24.63737
G1 X61.299 Y105.802 E24.67462
G1 X61.084 Y105.591 E24.69867
G1 X60.825 Y105.296 E24.73
G1 X60.658 Y105.081 E24.75173
G1 X60.499 Y104.845 E24.77445
G1 X60.344 Y104.582 E24.79882
G1 X60.214 Y104.325 E24.82181
G1 X60.098 Y104.055 E24.84526
G1 X60.006 Y103.799 E24.86698
G1 X59.922 Y103.507 E24.89123
G1 X59.866 Y103.246 E24.91254
G1 X59.818 Y102.926 E24.93837
G1 X59.781 Y102.448 E24.97664
G1 X59.775 Y102.28 E24.99006
G1 X59.775 Y100.693 E25.11674
G1 X59.779 Y100.567 E25.1268
G1 X59.803 Y100.19 E25.15696
G1 X59.84 Y99.892 E25.18093
G1 X59.895 Y99.608 E25.20402
G1 X59.971 Y99.317 E25.22803
G1 X60.055 Y99.059 E25.24969
G1 X60.166 Y98.78 E25.27366
G1 X60.288 Y98.522 E25.29644
G1 X60.427 Y98.272 E25.31927
G1 X60.579 Y98.034 E25.34181
G1 X60.769 Y97.778 E25.36726
G1 X61.073 Y97.424 E25.40451
G1 X61.284 Y97.209 E25.42856
G1 X61.579 Y96.95 E25.45989
G1 X61.794 Y96.783 E25.48162
G1 X62.025 Y96.627 E25.50387
G0 F9000 X62 Y96.643
G1 F1125 X62 Y106.355 E26.27913
G0 F9000 X64 Y107.063
G1 F1125 X64 Y95.939 E27.16709
G0 F9000 X66 Y95.9
G1 F1125 X66 Y107.345 E28.08068
G0 F9000 X68 Y108.507
G1 F1125 X68 Y95.9 E29.08703
G0 F9000 X70 Y95.9
G1 F1125 X70 Y141.778 E32.74921
G0 F9000 X72 Y144.355
G1 F1125 X72 Y95.9 E36.6171
G0 F9000 X74 Y95.923
G1 F1125 X74 Y145.063 E40.53966
G0 F9000 X76 Y145.1
G1 F1125 X76 Y95.9 E44.46702
G0 F9000 X78 Y95.9
G1 F1125 X78 Y145.1 E48.39438
G0 F9000 X80 Y145.1
G1 F1125 X80 Y95.9 E52.32173
G0 F9000 X82 Y95.9
G1 F1125 X82 Y145.1 E56.24909
G0 F9000 X84 Y145.1
G1 F1125 X84 Y95.9 E60.17645
G0 F9000 X86 Y95.9
G1 F1125 X86 Y145.1 E64.1038
G0 F9000 X88 Y145.1
G1 F1125 X88 Y95.9 E68.03116
G0 F9000 X90 Y95.9
G1 F1125 X90 Y145.1 E71.95852
G0 F9000 X92 Y145.1
G1 F1125 X92 Y95.863 E75.88883
G0 F9000 X94 Y95.238
G1 F1125 X94 Y145.1 E79.86903
G0 F9000 X96 Y145.1
G1 F1125 X96 Y93.35 E83.99994
G0 F9000 X98 Y91.424
G1 F1125 X98 Y145.1 E88.28459
G0 F9000 X100 Y145.1
G1 F1125 X100 Y90.905 E92.61067
G0 F9000 X102 Y90.894
G1 F1125 X102 Y145.1 E96.93762
G0 F9000 X104 Y145.1
G1 F1125 X104 Y90.894 E101.26458
G0 F9000 X106 Y91.041
G1 F1125 X106 Y145.1 E105.5798
G0 F9000 X108 Y145.1
G1 F1125 X108 Y92.126 E109.80842
G0 F9000 X110 Y94.528
G1 F1125 X110 Y145.1 E113.84529
G0 F9000 X112 Y145.1
G1 F1125 X112 Y95.658 E117.79197
G0 F9000 X114 Y95.9
G1 F1125 X114 Y145.1 E121.71932
G0 F9000 X116 Y145.1
G1 F1125 X116 Y95.9 E125.64668
G0 F9000 X118 Y95.9
G1 F1125 X118 Y145.1 E129.57404
G0 F9000 X120 Y145.1
G1 F1125 X120 Y95.9 E133.50139
G0 F9000 X122 Y95.863
G1 F1125 X122 Y145.1 E137.4317
G0 F9000 X124 Y145.1
G1 F1125 X124 Y95.238 E141.4119
G0 F9000 X126 Y93.35
G1 F1125 X126 Y145.1 E145.54281
G0 F9000 X128 Y145.1
G1 F1125 X128 Y91.424 E149.82746
G0 F9000 X130 Y90.905
G1 F1125 X130 Y145.1 E154.15354
G0 F9000 X132 Y145.1
G1 F1125 X132 Y90.894 E158.4805
G0 F9000 X134 Y90.894
G1 F1125 X134 Y145.1 E162.80746
G0 F9000 X136 Y145.1
G1 F1125 X136 Y91.041 E167.12268
G0 F9000 X138 Y92.126
G1 F1125 X138 Y145.1 E171.35129
G0 F9000 X140 Y145.1
G1 F1125 X140 Y94.528 E175.38817
G0 F9000 X142 Y95.658
G1 F1125 X142 Y145.1 E179.33484
G0 F9000 X144 Y145.1
G1 F1125 X144 Y95.9 E183.2622
G0 F9000 X146 Y95.9
G1 F1125 X146 Y145.1 E187.18956
G0 F9000 X148 Y145.1
G1 F1125 X148 Y95.9 E191.11691
G0 F9000 X150 Y95.9
G1 F1125 X150 Y145.1 E195.04427
G0 F9000 X152 Y145.1
G1 F1125 X152 Y95.9 E198.97163
G0 F9000 X154 Y95.9
G1 F1125 X154 Y145.1 E202.89898
G0 F9000 X156 Y145.1
G1 F1125 X156 Y95.9 E206.82634
G0 F9000 X158 Y95.9
G1 F1125 X158 Y145.1 E210.7537
G0 F9000 X160 Y145.1
G1 F1125 X160 Y95.9 E214.68106
G0 F9000 X162 Y95.9
G1 F1125 X162 Y144.842 E218.58782
G0 F9000 X164 Y143.491
G1 F1125 X164 Y95.9 E222.38674
G0 F9000 X166 Y95.9
G1 F1125 X166 Y109.72 E223.48991
G0 F9000 X168 Y107.786
G1 F1125 X168 Y95.9 E224.4387
G0 F9000 X170 Y95.9
G1 F1125 X170 Y107.143 E225.33617
G0 F9000 X172 Y106.842
G1 F1125 X172 Y96.159 E226.18893
G0 F9000 X174 Y97.505
G1 F1125 X174 Y105.491 E226.82641
G1 F2700 E221.82641
G0 F9000 X174.425 Y106.585
G0 X175.302 Y105.565
G0 X175.815 Y104.633
G0 X176.145 Y103.625
G0 X176.289 Y102.33
G0 X176.24 Y99.953
G0 X176.012 Y98.887
G0 X175.59 Y97.906
G0 X174.988 Y97.017
G0 X174.403 Y96.398
G0 X173.4 Y95.638
G0 X172.44 Y95.183
G0 X171.401 Y94.913
G0 X135.008 Y89.837
G0 X99.987 Y89.839
G0 X63.104 Y95.016
G0 X62.097 Y95.374
G0 X61.167 Y95.923
G0 X60.273 Y96.722
G0 X59.513 Y97.725
G0 X59.058 Y98.685
G0 X58.788 Y99.724
G0 X58.711 Y100.67
G0 X58.76 Y103.047
G0 X58.888 Y103.651
G0 X59.111 Y104.455
G0 X60 Y103.778
G1 F2700 E226.82641
G1 F1125 X60 Y99.227 E227.18969
G0 F300 X60 Y99.227 Z0.54
G0 F9000 X60.032 Y103.873
;TIME_ELAPSED:165.958946
;LAYER:-4
;TYPE:SUPPORT
G1 F1125 X62.999 Y106.84 E227.60836
G1 X63.192 Y106.903 E227.62862
G1 X63.482 Y106.979 E227.65853
G1 X63.766 Y107.034 E227.6874
G1 X64.065 Y107.07 E227.71745
G1 X64.413 Y107.093 E227.75225
G1 X64.553 Y107.098 E227.76622
G1 X64.685 Y107.111 E227.77946
G1 X59.775 Y102.201 E228.47231
G1 X59.775 Y100.787 E228.6134
G1 X66.542 Y107.554 E229.5683
G0 F9000 X66.637 Y107.591
G1 F1125 X67.236 Y107.915 E229.63625
G1 X67.793 Y108.314 E229.70462
G1 X68.293 Y108.777 E229.77261
G1 X68.731 Y109.302 E229.84083
G1 X69.098 Y109.877 E229.9089
G1 X69.309 Y110.321 E229.95795
G1 X69.391 Y110.493 E229.97696
G1 X69.604 Y111.143 E230.04521
G1 X69.732 Y111.814 E230.11337
G1 X69.755 Y112.181 E230.15006
G1 X102.672 Y145.099 E234.79508
G1 X101.258 Y145.099 E234.93617
G1 X69.774 Y113.615 E239.3789
G1 X69.774 Y115.029 E239.51999
G1 X99.844 Y145.099 E243.76319
G1 X98.429 Y145.099 E243.90438
G1 X69.774 Y116.443 E247.94798
G1 X69.774 Y117.857 E248.08907
G1 X97.015 Y145.099 E251.93314
G1 X95.601 Y145.099 E252.07423
G1 X69.774 Y119.271 E255.71877
G1 X69.774 Y120.686 E255.85996
G1 X94.187 Y145.099 E259.3049
G1 X92.773 Y145.099 E259.44599
G1 X69.774 Y122.1 E262.69139
G1 X69.774 Y123.514 E262.83248
G1 X91.358 Y145.099 E265.87829
G1 X89.944 Y145.099 E266.01938
G1 X69.774 Y124.928 E268.86565
G1 X69.774 Y126.343 E269.00684
G1 X88.53 Y145.099 E271.65352
G1 X87.116 Y145.099 E271.79461
G1 X69.774 Y127.757 E274.24175
G1 X69.774 Y129.171 E274.38284
G1 X85.702 Y145.099 E276.63045
G1 X84.287 Y145.099 E276.77164
G1 X69.774 Y130.585 E278.81965
G1 X69.774 Y131.999 E278.96074
G1 X82.873 Y145.099 E280.80922
G1 X81.459 Y145.099 E280.95031
G1 X69.774 Y133.414 E282.59919
G1 X69.774 Y134.828 E282.74028
G1 X80.045 Y145.099 E284.18963
G1 X78.63 Y145.099 E284.33082
G1 X69.774 Y136.242 E285.58057
G1 X69.774 Y137.656 E285.72166
G1 X77.216 Y145.099 E286.77188
G1 X75.802 Y145.099 E286.91297
G1 X69.774 Y139.07 E287.76365
G1 X69.775 Y140.279 E287.88429
G1 X69.78 Y140.447 E287.90106
G1 X69.784 Y140.495 E287.90586
G1 X74.379 Y145.09 E288.55427
G1 X74.065 Y145.071 E288.58566
G1 X73.766 Y145.034 E288.61572
G1 X73.482 Y144.979 E288.64458
G1 X73.191 Y144.903 E288.67459
G1 X72.932 Y144.818 E288.70179
G1 X72.655 Y144.707 E288.73157
G1 X72.518 Y144.643 E288.74665
G1 X72.395 Y144.585 E288.76022
G1 X72.137 Y144.442 E288.78966
G1 X71.919 Y144.302 E288.81551
G1 X71.652 Y144.105 E288.84862
G1 X71.298 Y143.801 E288.89518
G1 X71.171 Y143.684 E288.91241
G1 X71.084 Y143.59 E288.92519
G1 X70.825 Y143.295 E288.96436
G1 X70.658 Y143.08 E288.99152
G1 X70.498 Y142.844 E289.01997
G1 X70.344 Y142.581 E289.05038
G0 F9000 X70.227 Y142.352
G1 F1125 X72.518 Y144.643 E289.37366
G1 F2700 E284.37366
G0 F9000 X71.899 Y145.528
G0 X70.983 Y144.934
G0 X70.29 Y144.3
G0 X69.593 Y143.405
G0 X69.111 Y142.455
G0 X68.817 Y141.435
G0 X68.732 Y140.509
G0 X68.401 Y110.891
G0 X69.309 Y110.321
G1 F2700 E289.37366
