;FLAVOR:Marlin
;TIME:3803
;Filament used: 1.93443m
;Layer height: 0.2
;MINX:85.838
;MINY:80.87
;MINZ:0.24
;MAXX:149.162
;MAXY:154.161
;MAXZ:11.89
;Generated with Cura_SteamEngine 4.10.0
M140 S80
M105
M190 S80
M104 S225
M105
M109 S225
M82 ;absolute extrusion mode
; Ender 3 Custom Start G-code
G92 E0 ; Reset Extruder
G28 ; Home all axes
G1 Z2.0 F3000 ; Move Z Axis up little to prevent scratching of Heat Bed
G1 X0.1 Y20 Z0.3 F5000.0 ; Move to start position
G1 X0.1 Y200.0 Z0.3 F1500.0 E15 ; Draw the first line
G1 X0.4 Y200.0 Z0.3 F5000.0 ; Move to side a little
G1 X0.4 Y20 Z0.3 F1500.0 E30 ; Draw the second line
G92 E0 ; Reset Extruder
G1 Z2.0 F3000 ; Move Z Axis up little to prevent scratching of Heat Bed
G1 X5 Y20 Z0.3 F5000.0 ; Move over to prevent blob squish
G92 E0
G92 E0
G1 F2700 E-5
;LAYER_COUNT:55
;LAYER:-5
M107
G0 F9000 X95.837 Y95.892 Z0.24
;TYPE:SUPPORT-INTERFACE
G1 F2700 E0
G1 F1125 X95.892 Y95.837 E0.00621
G1 X96.245 Y95.52 E0.04408
G1 X100.142 Y92.324 E0.44639
G1 X100.436 Y92.103 E0.47575
G1 X100.495 Y92.065 E0.48135
G1 X100.851 Y91.848 E0.51463
G1 X100.965 Y91.783 E0.52511
G1 X105.284 Y89.473 E0.91608
G1 X105.854 Y89.12 E0.9696
G1 X106.384 Y88.69 E1.02408
G1 X106.857 Y88.197 E1.07862
G1 X107.263 Y87.648 E1.13312
G1 X107.596 Y87.052 E1.18762
G1 X107.849 Y86.425 E1.24159
G1 X107.949 Y86.088 E1.26965
G1 X108.022 Y85.811 E1.29252
G1 X108.108 Y85.546 E1.31476
G1 X108.219 Y85.267 E1.33873
G1 X108.341 Y85.009 E1.36151
G1 X108.487 Y84.746 E1.38552
G1 X108.638 Y84.51 E1.40788
G1 X108.809 Y84.275 E1.43108
G1 X109.005 Y84.035 E1.45582
G1 X109.164 Y83.862 E1.47457
G1 X109.45 Y83.586 E1.5063
G1 X109.671 Y83.398 E1.52946
G1 X109.903 Y83.224 E1.55261
G1 X110.149 Y83.065 E1.57599
G1 X110.388 Y82.928 E1.59798
G1 X110.666 Y82.794 E1.62262
G1 X110.936 Y82.683 E1.64592
G1 X111.202 Y82.594 E1.66831
G1 X111.495 Y82.516 E1.69251
G1 X111.758 Y82.461 E1.71396
G1 X112.034 Y82.42 E1.73623
G1 X112.15 Y82.405 E1.74557
G1 X116.967 Y81.93 E2.13195
G1 X117.096 Y81.921 E2.14227
G1 X117.5 Y81.902 E2.17456
G1 X117.904 Y81.921 E2.20684
G1 X118.033 Y81.93 E2.21716
G1 X122.855 Y82.406 E2.60395
G1 X122.945 Y82.417 E2.61119
G1 X123.36 Y82.486 E2.64477
G1 X123.63 Y82.547 E2.66686
G1 X123.908 Y82.629 E2.69
G1 X124.191 Y82.733 E2.71407
G1 X124.448 Y82.846 E2.73648
G1 X124.705 Y82.98 E2.75961
G1 X124.962 Y83.134 E2.78353
G1 X125.184 Y83.287 E2.80505
G1 X125.441 Y83.489 E2.83114
G1 X125.641 Y83.666 E2.85246
G1 X125.824 Y83.848 E2.87307
G1 X126.018 Y84.064 E2.89624
G1 X126.242 Y84.343 E2.9248
G1 X126.409 Y84.58 E2.94795
G1 X126.556 Y84.819 E2.97034
G1 X126.702 Y85.095 E2.99527
G1 X126.817 Y85.354 E3.01789
G1 X126.915 Y85.612 E3.03992
G1 X127 Y85.89 E3.06312
G1 X127.024 Y85.987 E3.0711
G1 X127.221 Y86.627 E3.12455
G1 X127.502 Y87.249 E3.17904
G1 X127.861 Y87.83 E3.23355
G1 X128.288 Y88.362 E3.28801
G1 X128.78 Y88.836 E3.34254
G1 X129.324 Y89.241 E3.39668
G1 X129.719 Y89.475 E3.43333
G1 X134.036 Y91.784 E3.82412
G1 X134.139 Y91.842 E3.83356
G1 X134.497 Y92.06 E3.86702
G1 X134.579 Y92.114 E3.87486
G1 X134.889 Y92.349 E3.90591
G1 X138.755 Y95.52 E4.30504
G1 X139.108 Y95.837 E4.34291
G1 X139.163 Y95.892 E4.34912
G1 X139.48 Y96.245 E4.38699
G1 X142.676 Y100.142 E4.7893
G1 X142.903 Y100.445 E4.81952
G1 X143.158 Y100.861 E4.85847
G1 X143.216 Y100.964 E4.86791
G1 X145.543 Y105.313 E5.26163
G1 X145.739 Y105.719 E5.29762
G1 X145.781 Y105.822 E5.3065
G1 X145.913 Y106.185 E5.33733
G1 X145.945 Y106.284 E5.34564
G1 X147.382 Y111.026 E5.74117
G1 X147.407 Y111.116 E5.74862
G1 X147.509 Y111.525 E5.78227
G1 X147.573 Y111.95 E5.81658
G1 X147.585 Y112.046 E5.8243
G1 X148.069 Y116.954 E6.21798
G1 X148.079 Y117.096 E6.22934
G1 X148.097 Y117.491 E6.2609
G1 X148.095 Y117.572 E6.26737
G1 X148.079 Y117.904 E6.2939
G1 X148.07 Y118.036 E6.30447
G1 X147.586 Y122.945 E6.69822
G1 X147.573 Y123.05 E6.70667
G1 X147.512 Y123.458 E6.7396
G1 X147.499 Y123.519 E6.74458
G1 X147.407 Y123.884 E6.77463
G1 X147.382 Y123.974 E6.78208
G1 X145.945 Y128.716 E7.17761
G1 X145.917 Y128.803 E7.1849
G1 X145.788 Y129.16 E7.2152
G1 X145.743 Y129.272 E7.22484
G1 X145.548 Y129.677 E7.26072
G1 X143.216 Y134.036 E7.65534
G1 X143.158 Y134.139 E7.66477
G1 X142.943 Y134.494 E7.6979
G1 X142.886 Y134.579 E7.70607
G1 X142.649 Y134.893 E7.73748
G1 X139.48 Y138.755 E8.13626
G1 X139.163 Y139.108 E8.17413
G1 X139.108 Y139.163 E8.18034
G1 X138.755 Y139.48 E8.21821
G1 X134.858 Y142.676 E8.62052
G1 X134.555 Y142.903 E8.65074
G1 X134.149 Y143.152 E8.68876
G1 X134.035 Y143.217 E8.69924
G1 X129.716 Y145.527 E9.09021
G1 X129.146 Y145.88 E9.14373
G1 X128.616 Y146.31 E9.19821
G1 X128.143 Y146.803 E9.25275
G1 X127.737 Y147.352 E9.30725
G1 X127.404 Y147.948 E9.36175
G1 X127.151 Y148.575 E9.41572
G1 X127.051 Y148.912 E9.44378
G1 X126.978 Y149.189 E9.46665
G1 X126.892 Y149.454 E9.48889
G1 X126.781 Y149.733 E9.51286
G1 X126.659 Y149.991 E9.53564
G1 X126.516 Y150.249 E9.55918
G1 X126.362 Y150.49 E9.58201
G1 X126.193 Y150.723 E9.60499
G1 X125.995 Y150.966 E9.63001
G1 X125.836 Y151.138 E9.64871
G1 X125.55 Y151.414 E9.68044
G1 X125.329 Y151.602 E9.7036
G1 X125.097 Y151.776 E9.72675
G1 X124.851 Y151.935 E9.75013
G1 X124.612 Y152.072 E9.77212
G1 X124.337 Y152.205 E9.7965
G1 X124.064 Y152.317 E9.82006
G1 X123.798 Y152.406 E9.84245
G1 X123.505 Y152.484 E9.86665
G1 X123.242 Y152.539 E9.8881
G1 X122.85 Y152.595 E9.91971
G1 X118.033 Y153.07 E10.30608
G1 X117.904 Y153.079 E10.31641
G1 X117.5 Y153.098 E10.34869
G1 X117.096 Y153.079 E10.38098
G1 X116.967 Y153.07 E10.3913
G1 X112.144 Y152.594 E10.77816
G1 X112.054 Y152.583 E10.7854
G1 X111.64 Y152.514 E10.8189
G1 X111.37 Y152.453 E10.841
G1 X111.092 Y152.371 E10.86413
G1 X110.809 Y152.267 E10.8882
G1 X110.552 Y152.154 E10.91061
G1 X110.295 Y152.02 E10.93375
G1 X110.038 Y151.866 E10.95766
G1 X109.814 Y151.711 E10.97941
G1 X109.555 Y151.509 E11.00563
G1 X109.36 Y151.335 E11.02649
G1 X109.176 Y151.152 E11.0472
G1 X108.982 Y150.936 E11.07038
G1 X108.758 Y150.657 E11.09894
G1 X108.591 Y150.42 E11.12208
G1 X108.443 Y150.179 E11.14466
G1 X108.298 Y149.905 E11.1694
G1 X108.183 Y149.646 E11.19203
G1 X108.083 Y149.382 E11.21456
G1 X107.998 Y149.103 E11.23784
G1 X107.976 Y149.013 E11.24524
G1 X107.779 Y148.373 E11.29869
G1 X107.498 Y147.751 E11.35317
G1 X107.139 Y147.17 E11.40769
G1 X106.712 Y146.638 E11.46214
G1 X106.22 Y146.164 E11.51668
G1 X105.676 Y145.759 E11.57082
G1 X105.281 Y145.525 E11.60746
G1 X100.964 Y143.216 E11.99826
G1 X100.861 Y143.158 E12.0077
G1 X100.445 Y142.903 E12.04665
G1 X100.142 Y142.676 E12.07687
G1 X96.245 Y139.48 E12.47918
G1 X95.892 Y139.163 E12.51705
G1 X95.837 Y139.108 E12.52326
G1 X95.52 Y138.755 E12.56113
G1 X92.324 Y134.858 E12.96344
G1 X92.097 Y134.555 E12.99366
G1 X92.058 Y134.494 E12.99944
G1 X91.842 Y134.139 E13.03261
G1 X91.784 Y134.036 E13.04205
G1 X89.452 Y129.677 E13.43667
G1 X89.257 Y129.272 E13.47255
G1 X89.212 Y129.16 E13.48218
G1 X89.083 Y128.803 E13.51248
G1 X89.055 Y128.716 E13.51978
G1 X87.618 Y123.974 E13.91531
G1 X87.593 Y123.884 E13.92276
G1 X87.501 Y123.519 E13.95281
G1 X87.486 Y123.447 E13.95868
G1 X87.427 Y123.05 E13.99072
G1 X87.414 Y122.945 E13.99916
G1 X86.93 Y118.036 E14.39292
G1 X86.921 Y117.904 E14.40348
G1 X86.903 Y117.509 E14.43505
G1 X86.905 Y117.428 E14.44151
G1 X86.921 Y117.096 E14.46805
G1 X86.93 Y116.964 E14.47861
G1 X87.414 Y112.055 E14.87236
G1 X87.427 Y111.95 E14.88081
G1 X87.491 Y111.525 E14.91512
G1 X87.593 Y111.116 E14.94877
G1 X87.618 Y111.026 E14.95622
G1 X89.055 Y106.284 E15.35175
G1 X89.083 Y106.197 E15.35904
G1 X89.215 Y105.832 E15.39003
G1 X89.257 Y105.728 E15.39898
G1 X89.452 Y105.323 E15.43486
G1 X91.784 Y100.964 E15.82948
G1 X91.842 Y100.861 E15.83891
G1 X92.097 Y100.445 E15.87786
G1 X92.351 Y100.107 E15.91161
G1 X95.52 Y96.245 E16.3104
G1 X95.837 Y95.892 E16.34827
G0 F9000 X96 Y95.74
G1 F1125 X96 Y139.259 E19.82214
G0 F9000 X98 Y140.919
G1 F1125 X98 Y94.08 E23.56104
G0 F9000 X100 Y92.44
G1 F1125 X100 Y142.559 E27.56175
G0 F9000 X102 Y143.77
G1 F1125 X102 Y91.229 E31.7558
G0 F9000 X104 Y90.159
G1 F1125 X104 Y144.839 E36.12059
G0 F9000 X106 Y146
G1 F1125 X106 Y89.001 E40.6705
G0 F9000 X108 Y85.894
G1 F1125 X108 Y149.109 E45.7166
G0 F9000 X110 Y151.839
G1 F1125 X110 Y83.161 E51.19877
G0 F9000 X112 Y82.425
G1 F1125 X112 Y152.574 E56.79837
G0 F9000 X114 Y152.777
G1 F1125 X114 Y82.222 E62.43037
G0 F9000 X116 Y82.025
G1 F1125 X116 Y152.974 E68.09383
G0 F9000 X118 Y153.073
G1 F1125 X118 Y81.928 E73.77293
G0 F9000 X120 Y82.125
G1 F1125 X120 Y152.877 E79.42066
G0 F9000 X122 Y152.679
G1 F1125 X122 Y82.322 E85.03686
G0 F9000 X124 Y82.663
G1 F1125 X124 Y152.339 E90.5987
G0 F9000 X126 Y150.96
G1 F1125 X126 Y84.044 E95.94022
G0 F9000 X128 Y88.004
G1 F1125 X128 Y146.997 E100.6493
G0 F9000 X130 Y145.376
G1 F1125 X130 Y89.626 E105.09951
G0 F9000 X132 Y90.696
G1 F1125 X132 Y144.306 E109.37889
G0 F9000 X134 Y143.236
G1 F1125 X134 Y91.765 E113.48753
G0 F9000 X136 Y93.261
G1 F1125 X136 Y141.74 E117.35733
G0 F9000 X138 Y140.1
G1 F1125 X138 Y94.901 E120.96531
G0 F9000 X140 Y96.88
G1 F1125 X140 Y138.122 E124.25742
G0 F9000 X142 Y135.684
G1 F1125 X142 Y99.318 E127.16032
G0 F9000 X144 Y102.43
G1 F1125 X144 Y132.571 E129.5663
G0 F9000 X146 Y128.535
G1 F1125 X146 Y106.466 E131.32794
G1 F2700 E126.32794
G0 F9000 X147.019 Y106.157
G0 X148.566 Y111.385
G0 X149.059 Y116.151
G0 X148 Y116.255
G1 F2700 E131.32794
G1 F1125 X148 Y118.746 E131.52679
G1 F2700 E126.52679
G0 F9000 X149.06 Y118.849
G0 X148.533 Y123.769
G0 X146.733 Y129.663
G0 X143.781 Y135.157
G0 X139.828 Y139.947
G0 X125.994 Y152.434
G0 X125.103 Y153.016
G0 X124.107 Y153.425
G0 X122.976 Y153.652
G0 X117.425 Y154.161
G0 X111.439 Y153.561
G0 X110.423 Y153.26
G0 X109.467 Y152.765
G0 X108.639 Y152.119
G0 X95.053 Y139.828
G0 X93.177 Y137.577
G0 X94 Y136.901
G1 F2700 E131.52679
G1 F1125 X94 Y98.097 E134.62429
G0 F9000 X92 Y100.603
G1 F1125 X92 Y134.398 E137.32195
G0 F9000 X90 Y130.701
G1 F1125 X90 Y104.298 E139.42955
G1 F2700 E134.42955
G0 F9000 X89.061 Y103.797
G0 X88.221 Y105.452
G0 X86.981 Y109.457
G0 X88 Y109.765
G1 F2700 E139.42955
G1 F1125 X88 Y125.234 E140.66436
G1 F2700 E135.66436
G0 F300 X88 Y125.234 Z0.54
G0 F9000 X86.981 Y125.543
G0 X88.292 Y129.722
G0 X90.848 Y134.545
G0 X92.058 Y134.493
;TIME_ELAPSED:106.383732
;LAYER:-4
;TYPE:SUPPORT
G1 F2700 E140.66436
G1 F1125 X92.097 Y134.554 E140.67158
G1 X92.323 Y134.857 E140.7093
G1 X95.52 Y138.754 E141.21225
G1 X95.837 Y139.107 E141.25959
G1 X95.891 Y139.162 E141.26728
G1 X96.245 Y139.478 E141.31463
G1 X100.141 Y142.675 E141.8175
G1 X100.445 Y142.902 E141.85536
G1 X100.525 Y142.951 E141.86472
G1 X92.044 Y134.471 E143.06141
G1 X91.841 Y134.138 E143.10032
G1 X91.783 Y134.034 E143.11221
G1 X90.357 Y131.369 E143.41379
G1 X103.627 Y144.639 E145.28633
G0 F9000 X105.281 Y145.523
G1 F1125 X105.676 Y145.758 E145.3322
G1 X106.22 Y146.163 E145.39987
G1 X106.712 Y146.636 E145.46797
G1 X107.138 Y147.169 E145.53605
G1 X107.497 Y147.75 E145.6042
G1 X107.778 Y148.372 E145.6723
G1 X107.964 Y148.976 E145.73536
G1 X111.461 Y152.473 E146.22882
G1 X111.64 Y152.513 E146.24712
G1 X112.053 Y152.582 E146.2889
G1 X112.144 Y152.593 E146.29805
G1 X113.088 Y152.686 E146.3927
G1 X89.027 Y128.625 E149.78797
G1 X88.413 Y126.596 E149.99949
G1 X114.657 Y152.841 E153.70287
G1 X116.225 Y152.995 E153.86008
G1 X87.797 Y124.567 E157.87158
G1 X87.618 Y123.973 E157.93348
G1 X87.592 Y123.882 E157.94292
G1 X87.5 Y123.518 E157.98038
G1 X87.486 Y123.446 E157.9877
G1 X87.426 Y123.049 E158.02777
G1 X87.413 Y122.944 E158.03832
G1 X87.394 Y122.749 E158.05787
G1 X117.73 Y153.085 E162.33861
G1 X117.903 Y153.078 E162.35589
G1 X118.033 Y153.068 E162.3689
G1 X119.029 Y152.97 E162.46876
G1 X87.239 Y121.18 E166.95467
G1 X87.085 Y119.612 E167.11188
G1 X120.316 Y152.843 E171.80113
G1 X121.603 Y152.716 E171.93017
G1 X86.93 Y118.042 E176.82298
G1 X86.929 Y118.035 E176.82368
G1 X86.921 Y117.903 E176.83688
G1 X86.903 Y117.508 E176.87633
G1 X86.904 Y117.427 E176.88441
G1 X86.921 Y117.094 E176.91768
G1 X86.929 Y116.963 E176.93078
G1 X86.959 Y116.657 E176.96146
G1 X122.89 Y152.588 E182.03171
G1 X123.241 Y152.538 E182.06709
G1 X123.504 Y152.483 E182.0939
G1 X123.798 Y152.404 E182.12427
G1 X124.039 Y152.323 E182.14964
G1 X87.086 Y115.37 E187.36411
G1 X87.213 Y114.083 E187.49315
G1 X124.98 Y151.85 E192.82248
G1 X125.097 Y151.774 E192.8364
G1 X125.329 Y151.6 E192.86534
G1 X125.55 Y151.413 E192.89423
G1 X125.757 Y151.213 E192.92295
G1 X87.34 Y112.796 E198.344
G1 X87.413 Y112.053 E198.4185
G1 X87.426 Y111.949 E198.42895
G1 X87.489 Y111.531 E198.47113
G1 X126.395 Y150.436 E203.96112
G1 X126.516 Y150.248 E203.98343
G1 X126.659 Y149.99 E204.01286
G1 X126.78 Y149.731 E204.04138
G1 X126.874 Y149.501 E204.06618
G1 X87.799 Y110.426 E209.58008
G1 X88.128 Y109.341 E209.69321
G1 X127.211 Y148.424 E215.20824
G1 X127.404 Y147.947 E215.25959
G1 X127.671 Y147.47 E215.31413
G1 X88.456 Y108.255 E220.84779
G1 X88.785 Y107.17 E220.96092
G1 X128.278 Y146.663 E226.53381
G1 X128.616 Y146.309 E226.58265
G1 X129.014 Y145.985 E226.63386
G1 X89.12 Y106.09 E232.2634
G1 X89.215 Y105.831 E232.29093
G1 X89.257 Y105.727 E232.30212
G1 X89.451 Y105.322 E232.34693
G1 X89.56 Y105.117 E232.37009
G1 X129.881 Y145.437 E238.05975
G1 X130.802 Y144.944 E238.16399
G1 X90.053 Y104.195 E243.91411
G1 X90.546 Y103.274 E244.01835
G1 X131.724 Y144.452 E249.82901
G1 X132.645 Y143.959 E249.93324
G1 X91.039 Y102.353 E255.8043
G1 X91.532 Y101.432 E255.90853
G1 X133.566 Y143.466 E261.83999
G1 X134.034 Y143.215 E261.89297
G1 X134.148 Y143.151 E261.90602
G1 X134.469 Y142.954 E261.9436
G1 X92.044 Y100.529 E267.93023
G1 X92.097 Y100.443 E267.94031
G1 X92.35 Y100.106 E267.98235
G1 X92.659 Y99.73 E268.03091
G1 X135.268 Y142.339 E274.0435
G1 X136.044 Y141.701 E274.14374
G1 X93.296 Y98.953 E280.17595
G1 X93.934 Y98.176 E280.27626
G1 X136.821 Y141.064 E286.32815
G1 X137.598 Y140.427 E286.42841
G1 X94.571 Y97.399 E292.50005
G1 X95.209 Y96.623 E292.60029
G1 X138.375 Y139.789 E298.69148
G1 X138.754 Y139.478 E298.7404
G1 X139.108 Y139.162 E298.78775
G1 X139.135 Y139.135 E298.79156
G1 X95.863 Y95.863 E304.8977
G1 X95.89 Y95.837 E304.90144
G1 X96.244 Y95.52 E304.94886
G1 X96.624 Y95.209 E304.99786
G1 X139.79 Y138.375 E311.08904
G1 X140.427 Y137.599 E311.18922
G1 X97.401 Y94.572 E317.26072
G1 X98.178 Y93.935 E317.36098
G1 X141.064 Y136.822 E323.41273
G1 X141.702 Y136.045 E323.51304
G1 X98.954 Y93.297 E329.54525
G1 X99.731 Y92.66 E329.6455
G1 X142.339 Y135.268 E335.65795
G1 X142.648 Y134.892 E335.70651
G1 X142.885 Y134.579 E335.74568
G1 X142.942 Y134.493 E335.75598
G1 X142.956 Y134.471 E335.75858
G1 X100.529 Y92.044 E341.74549
G1 X100.85 Y91.847 E341.78307
G1 X100.964 Y91.783 E341.79611
G1 X101.432 Y91.532 E341.8491
G1 X143.466 Y133.566 E347.78055
G1 X143.959 Y132.645 E347.88479
G1 X102.353 Y91.039 E353.75585
G1 X103.275 Y90.547 E353.86012
G1 X144.452 Y131.724 E359.67064
G1 X144.945 Y130.803 E359.77488
G1 X104.196 Y90.054 E365.525
G1 X105.117 Y89.561 E365.62924
G1 X145.438 Y129.882 E371.31897
G1 X145.547 Y129.677 E371.34213
G1 X145.741 Y129.271 E371.38703
G1 X145.787 Y129.16 E371.39902
G1 X145.878 Y128.908 E371.42575
G1 X105.984 Y89.014 E377.05523
G1 X106.383 Y88.69 E377.10651
G1 X106.721 Y88.336 E377.15535
G1 X146.213 Y127.828 E382.7281
G1 X146.542 Y126.743 E382.84123
G1 X107.327 Y87.528 E388.37489
G1 X107.594 Y87.051 E388.42943
G1 X107.787 Y86.574 E388.48078
G1 X146.871 Y125.657 E393.99588
G1 X147.199 Y124.572 E394.10898
G1 X108.125 Y85.498 E399.62274
G1 X108.218 Y85.267 E399.64759
G1 X108.34 Y85.009 E399.67607
G1 X108.486 Y84.746 E399.70608
G1 X108.603 Y84.562 E399.72784
G1 X147.509 Y123.467 E405.21783
G1 X147.51 Y123.458 E405.21873
G1 X147.572 Y123.05 E405.25991
G1 X147.585 Y122.945 E405.27046
G1 X147.658 Y122.202 E405.34496
G1 X109.242 Y83.786 E410.76587
G1 X109.449 Y83.586 E410.79459
G1 X109.67 Y83.398 E410.82354
G1 X109.902 Y83.224 E410.85248
G1 X110.018 Y83.148 E410.86631
G1 X147.786 Y120.915 E416.19572
G1 X147.912 Y119.628 E416.32475
G1 X110.959 Y82.675 E421.53922
G1 X111.201 Y82.594 E421.56468
G1 X111.494 Y82.515 E421.59496
G1 X111.757 Y82.46 E421.62177
G1 X112.033 Y82.419 E421.64961
G1 X112.108 Y82.41 E421.65715
G1 X148.039 Y118.341 E426.7274
