;FLAVOR:Marlin
;TIME:15277
;Filament used: 15.0139m
;Layer height: 0.28
;MINX:6.841
;MINY:18.148
;MINZ:0.336
;MAXX:228.159
;MAXY:216.836
;MAXZ:21.066
;Generated with Cura_SteamEngine 4.10.0
M140 S80
M105
M190 S80
M104 S225
M105
M109 S225
M82 ;absolute extrusion mode
; Ender 3 Custom Start G-code
G92 E0 ; Reset Extruder
G28 ; Home all axes
G1 Z2.0 F3000 ; Move Z Axis up little to prevent scratching of Heat Bed
G1 X0.1 Y20 Z0.3 F5000.0 ; Move to start position
G1 X0.1 Y200.0 Z0.3 F1500.0 E15 ; Draw the first line
G1 X0.4 Y200.0 Z0.3 F5000.0 ; Move to side a little
G1 X0.4 Y20 Z0.3 F1500.0 E30 ; Draw the second line
G92 E0 ; Reset Extruder
G1 Z2.0 F3000 ; Move Z Axis up little to prevent scratching of Heat Bed
G1 X5 Y20 Z0.3 F5000.0 ; Move over to prevent blob squish
G92 E0
G92 E0
G1 F2700 E-5
;LAYER_COUNT:71
;LAYER:-5
M107
G0 F9000 X20.31 Y20.447 Z0.336
;TYPE:SUPPORT-INTERFACE
G1 F2700 E0
G1 F1125 X20.521 Y20.263 E0.03129
G1 X20.768 Y20.072 E0.06618
G1 X20.97 Y19.935 E0.09346
G1 X21.251 Y19.77 E0.12987
G1 X21.497 Y19.646 E0.16066
G1 X21.765 Y19.531 E0.19325
G1 X22.051 Y19.43 E0.22715
G1 X22.317 Y19.355 E0.25803
G1 X22.61 Y19.292 E0.29152
G1 X23.078 Y19.227 E0.34433
G1 X23.378 Y19.205 E0.37794
G1 X23.766 Y19.205 E0.4213
G1 X24.044 Y19.223 E0.45244
G1 X24.333 Y19.259 E0.48498
G1 X24.643 Y19.319 E0.52027
G1 X24.896 Y19.385 E0.54949
G1 X25.18 Y19.478 E0.58289
G1 X25.467 Y19.592 E0.6174
G1 X25.707 Y19.705 E0.64704
G1 X25.965 Y19.848 E0.68001
G1 X26.212 Y20.009 E0.71296
G1 X26.596 Y20.298 E0.76667
G1 X26.736 Y20.411 E0.78677
G1 X225.471 Y195.059 E30.35359
G1 X225.548 Y195.132 E30.36545
G1 X225.845 Y195.429 E30.41239
G1 X226.028 Y195.636 E30.44327
G1 X226.198 Y195.855 E30.47425
G1 X226.377 Y196.119 E30.50989
G1 X226.508 Y196.341 E30.5387
G1 X226.647 Y196.615 E30.57304
G1 X226.765 Y196.89 E30.60648
G1 X226.859 Y197.154 E30.6378
G1 X226.933 Y197.407 E30.66725
G1 X227.005 Y197.737 E30.705
G1 X227.062 Y198.114 E30.74761
G1 X227.088 Y198.428 E30.78282
G1 X227.095 Y198.78 E30.82217
G1 X227.081 Y199.083 E30.85606
G1 X227.049 Y199.381 E30.88956
G1 X227.003 Y199.654 E30.9205
G1 X226.934 Y199.941 E30.95349
G1 X226.85 Y200.217 E30.98573
G1 X226.743 Y200.499 E31.01943
G1 X226.629 Y200.751 E31.05034
G1 X226.505 Y200.985 E31.07994
G1 X226.327 Y201.269 E31.11739
G1 X226.015 Y201.693 E31.17622
G1 X225.89 Y201.849 E31.19856
G1 X224.807 Y203.085 E31.38221
G1 X224.584 Y203.334 E31.41957
G1 X223.53 Y204.538 E31.5984
G1 X222.248 Y205.994 E31.81519
G1 X222.151 Y206.098 E31.83109
G1 X221.888 Y206.363 E31.87281
G1 X221.656 Y206.567 E31.90734
G1 X221.437 Y206.738 E31.93839
G1 X221.223 Y206.884 E31.96734
G1 X220.694 Y207.295 E32.0422
G1 X220.213 Y207.78 E32.11854
G1 X219.795 Y208.322 E32.19503
G1 X219.422 Y208.975 E32.27907
G1 X219.401 Y209.018 E32.28442
G1 X219.246 Y209.293 E32.3197
G1 X219.073 Y209.558 E32.35506
G1 X218.813 Y209.9 E32.40307
G1 X218.724 Y210.004 E32.41837
G1 X215.239 Y213.977 E33.00898
G1 X215.04 Y214.2 E33.04238
G1 X214.962 Y214.282 E33.05503
G1 X214.686 Y214.556 E33.09849
G1 X214.46 Y214.753 E33.13199
G1 X214.238 Y214.923 E33.16324
G1 X213.992 Y215.088 E33.19634
G1 X213.739 Y215.235 E33.22904
G1 X213.48 Y215.365 E33.26143
G1 X213.204 Y215.482 E33.29493
G1 X212.953 Y215.57 E33.32465
G1 X212.692 Y215.643 E33.35494
G1 X212.35 Y215.714 E33.39398
G1 X211.925 Y215.774 E33.44194
G1 X211.623 Y215.795 E33.47577
G1 X211.234 Y215.795 E33.51925
G1 X210.956 Y215.777 E33.55038
G1 X210.667 Y215.741 E33.58293
G1 X210.357 Y215.681 E33.61821
G1 X210.104 Y215.615 E33.64743
G1 X209.82 Y215.522 E33.68083
G1 X209.533 Y215.408 E33.71534
G1 X209.293 Y215.295 E33.74499
G1 X209.035 Y215.152 E33.77795
G1 X208.788 Y214.991 E33.8109
G1 X208.404 Y214.702 E33.86461
G1 X208.264 Y214.589 E33.88472
G1 X9.519 Y39.932 E63.45304
G1 X9.452 Y39.868 E63.46339
G1 X9.155 Y39.571 E63.51033
G1 X8.972 Y39.364 E63.54121
G1 X8.802 Y39.145 E63.57219
G1 X8.623 Y38.881 E63.60784
G1 X8.492 Y38.659 E63.63664
G1 X8.353 Y38.385 E63.67098
G1 X8.241 Y38.124 E63.70272
G1 X8.14 Y37.843 E63.73609
G1 X8.064 Y37.577 E63.76701
G1 X7.995 Y37.262 E63.80304
G1 X7.935 Y36.869 E63.84747
G1 X7.912 Y36.582 E63.87965
G1 X7.905 Y36.217 E63.92045
G1 X7.917 Y35.928 E63.95277
G1 X7.951 Y35.617 E63.98773
G1 X7.998 Y35.349 E64.01814
G1 X8.068 Y35.053 E64.05213
G1 X8.15 Y34.786 E64.08335
G1 X8.253 Y34.513 E64.11595
G1 X8.372 Y34.248 E64.14842
G1 X8.494 Y34.018 E64.17751
G1 X8.672 Y33.733 E64.21506
G1 X8.998 Y33.291 E64.27644
G1 X9.098 Y33.167 E64.29424
G1 X11.115 Y30.867 E64.63611
G1 X11.491 Y30.442 E64.69953
G1 X12.841 Y28.903 E64.92831
G1 X12.903 Y28.839 E64.93827
G1 X13.178 Y28.57 E64.98126
G1 X13.414 Y28.369 E65.0159
G1 X13.64 Y28.199 E65.04751
G1 X13.69 Y28.166 E65.0542
G1 X14.224 Y27.762 E65.12903
G1 X14.713 Y27.284 E65.20545
G1 X15.139 Y26.747 E65.28206
G1 X15.274 Y26.514 E65.31215
G1 X15.287 Y26.52 E65.31375
G1 X15.701 Y25.774 E65.40909
G1 X15.864 Y25.519 E65.44292
G1 X16.014 Y25.31 E65.47167
G1 X16.229 Y25.047 E65.50963
G1 X19.933 Y20.83 E66.13687
G1 X20.027 Y20.73 E66.15221
G1 X20.31 Y20.447 E66.19694
G0 F9000 X20 Y20.758
G1 F1125 X20 Y49.142 E69.36896
G0 F9000 X18 Y47.385
G1 F1125 X18 Y23.03 E72.09073
G0 F9000 X16 Y25.329
G1 F1125 X16 Y45.627 E74.35912
G0 F9000 X14 Y43.869
G1 F1125 X14 Y27.931 E76.14025
G0 F9000 X12 Y29.861
G1 F1125 X12 Y42.112 E77.50935
G0 F9000 X10 Y40.354
G1 F1125 X10 Y32.138 E78.42752
G0 F9000 X8 Y35.34
G1 F1125 X8 Y37.284 E78.64477
G1 F2700 E73.64477
G0 F9000 X7.126 Y38.169
G0 X7.552 Y39.16
G0 X8.16 Y40.053
G0 X8.526 Y40.432
G0 X21.298 Y51.7
G0 X22 Y50.9
G1 F2700 E78.64477
G1 F1125 X22 Y19.448 E82.15966
G0 F9000 X24 Y19.221
G1 F1125 X24 Y52.657 E85.89627
G0 F9000 X26 Y54.415
G1 F1125 X26 Y19.871 E89.7567
G0 F9000 X28 Y21.522
G1 F1125 X28 Y56.173 E93.62909
G0 F9000 X30 Y57.93
G1 F1125 X30 Y23.28 E97.50137
G0 F9000 X32 Y25.037
G1 F1125 X32 Y59.688 E101.37376
G0 F9000 X34 Y61.445
G1 F1125 X34 Y26.795 E105.24604
G0 F9000 X36 Y28.553
G1 F1125 X36 Y63.203 E109.11832
G0 F9000 X38 Y64.961
G1 F1125 X38 Y30.31 E112.99071
G0 F9000 X40 Y32.068
G1 F1125 X40 Y66.718 E116.86298
G0 F9000 X42 Y68.476
G1 F1125 X42 Y33.825 E120.73537
G0 F9000 X44 Y35.583
G1 F1125 X44 Y70.233 E124.60765
G0 F9000 X46 Y71.991
G1 F1125 X46 Y37.341 E128.47993
G0 F9000 X48 Y39.098
G1 F1125 X48 Y73.749 E132.35232
G0 F9000 X50 Y75.506
G1 F1125 X50 Y40.856 E136.2246
G0 F9000 X52 Y42.613
G1 F1125 X52 Y77.264 E140.09699
G0 F9000 X54 Y79.021
G1 F1125 X54 Y44.371 E143.96927
G0 F9000 X56 Y46.129
G1 F1125 X56 Y80.779 E147.84154
G0 F9000 X58 Y82.537
G1 F1125 X58 Y47.886 E151.71393
G0 F9000 X60 Y49.644
G1 F1125 X60 Y84.294 E155.58621
G0 F9000 X62 Y86.052
G1 F1125 X62 Y51.401 E159.4586
G0 F9000 X64 Y53.159
G1 F1125 X64 Y87.809 E163.33088
G0 F9000 X66 Y89.567
G1 F1125 X66 Y54.917 E167.20316
G0 F9000 X68 Y56.674
G1 F1125 X68 Y91.325 E171.07555
G0 F9000 X70 Y93.082
G1 F1125 X70 Y58.432 E174.94782
G0 F9000 X72 Y60.189
G1 F1125 X72 Y94.84 E178.82021
G0 F9000 X74 Y96.597
G1 F1125 X74 Y61.947 E182.69249
G0 F9000 X76 Y63.705
G1 F1125 X76 Y98.355 E186.56477
G0 F9000 X78 Y100.113
G1 F1125 X78 Y65.462 E190.43716
G0 F9000 X80 Y67.22
G1 F1125 X80 Y101.87 E194.30944
G0 F9000 X82 Y103.628
G1 F1125 X82 Y68.977 E198.18183
G0 F9000 X84 Y70.735
G1 F1125 X84 Y105.385 E202.05411
G0 F9000 X86 Y107.143
G1 F1125 X86 Y72.493 E205.92638
G0 F9000 X88 Y74.25
G1 F1125 X88 Y108.901 E209.79877
G0 F9000 X90 Y110.658
G1 F1125 X90 Y76.008 E213.67105
G0 F9000 X92 Y77.765
G1 F1125 X92 Y112.416 E217.54344
G0 F9000 X94 Y114.173
G1 F1125 X94 Y79.523 E221.41572
G0 F9000 X96 Y81.281
G1 F1125 X96 Y115.931 E225.288
G0 F9000 X98 Y117.689
G1 F1125 X98 Y83.038 E229.16039
G0 F9000 X100 Y84.796
G1 F1125 X100 Y119.446 E233.03266
G0 F9000 X102 Y121.204
G1 F1125 X102 Y86.553 E236.90505
G0 F9000 X104 Y88.311
G1 F1125 X104 Y122.961 E240.77733
G0 F9000 X106 Y124.719
G1 F1125 X106 Y90.069 E244.64961
G0 F9000 X108 Y91.826
G1 F1125 X108 Y126.477 E248.522
G0 F9000 X110 Y128.234
G1 F1125 X110 Y93.584 E252.39428
G0 F9000 X112 Y95.341
G1 F1125 X112 Y129.992 E256.26667
G0 F9000 X114 Y131.749
G1 F1125 X114 Y97.099 E260.13895
G0 F9000 X116 Y98.857
G1 F1125 X116 Y133.507 E264.01122
G0 F9000 X118 Y135.265
G1 F1125 X118 Y100.614 E267.88361
G0 F9000 X120 Y102.372
G1 F1125 X120 Y137.022 E271.75589
G0 F9000 X122 Y138.78
G1 F1125 X122 Y104.129 E275.62828
G0 F9000 X124 Y105.887
G1 F1125 X124 Y140.537 E279.50056
G0 F9000 X126 Y142.295
G1 F1125 X126 Y107.645 E283.37284
G0 F9000 X128 Y109.402
G1 F1125 X128 Y144.053 E287.24523
G0 F9000 X130 Y145.81
G1 F1125 X130 Y111.16 E291.1175
G0 F9000 X132 Y112.917
G1 F1125 X132 Y147.568 E294.98989
G0 F9000 X134 Y149.325
G1 F1125 X134 Y114.675 E298.86217
G0 F9000 X136 Y116.433
G1 F1125 X136 Y151.083 E302.73445
G0 F9000 X138 Y152.841
G1 F1125 X138 Y118.19 E306.60684
G0 F9000 X140 Y119.948
G1 F1125 X140 Y154.598 E310.47912
G0 F9000 X142 Y156.356
G1 F1125 X142 Y121.705 E314.35151
G0 F9000 X144 Y123.463
G1 F1125 X144 Y158.113 E318.22379
G0 F9000 X146 Y159.871
G1 F1125 X146 Y125.221 E322.09606
G0 F9000 X148 Y126.978
G1 F1125 X148 Y161.629 E325.96845
G0 F9000 X150 Y163.386
G1 F1125 X150 Y128.736 E329.84073
G0 F9000 X152 Y130.493
G1 F1125 X152 Y165.144 E333.71312
G0 F9000 X154 Y166.901
G1 F1125 X154 Y132.251 E337.5854
G0 F9000 X156 Y134.008
G1 F1125 X156 Y168.659 E341.45779
G0 F9000 X158 Y170.417
G1 F1125 X158 Y135.766 E345.33018
G0 F9000 X160 Y137.524
G1 F1125 X160 Y172.174 E349.20246
G0 F9000 X162 Y173.932
G1 F1125 X162 Y139.281 E353.07485
G0 F9000 X164 Y141.039
G1 F1125 X164 Y175.689 E356.94712
G0 F9000 X166 Y177.447
G1 F1125 X166 Y142.796 E360.81951
G0 F9000 X168 Y144.554
G1 F1125 X168 Y179.205 E364.6919
G0 F9000 X170 Y180.962
G1 F1125 X170 Y146.312 E368.56418
G0 F9000 X172 Y148.069
G1 F1125 X172 Y182.72 E372.43657
G0 F9000 X174 Y184.477
G1 F1125 X174 Y149.827 E376.30885
G0 F9000 X176 Y151.584
G1 F1125 X176 Y186.235 E380.18124
G0 F9000 X178 Y187.993
G1 F1125 X178 Y153.342 E384.05363
G0 F9000 X180 Y155.1
G1 F1125 X180 Y189.75 E387.92591
G0 F9000 X182 Y191.508
G1 F1125 X182 Y156.857 E391.7983
G0 F9000 X184 Y158.615
G1 F1125 X184 Y193.265 E395.67057
G0 F9000 X186 Y195.023
G1 F1125 X186 Y160.372 E399.54296
G0 F9000 X188 Y162.13
G1 F1125 X188 Y196.781 E403.41535
G0 F9000 X190 Y198.538
G1 F1125 X190 Y163.888 E407.28763
G0 F9000 X192 Y165.645
G1 F1125 X192 Y200.296 E411.16002
G0 F9000 X194 Y202.053
G1 F1125 X194 Y167.403 E415.0323
G0 F9000 X196 Y169.16
G1 F1125 X196 Y203.811 E418.90469
G0 F9000 X198 Y205.569
G1 F1125 X198 Y170.918 E422.77708
G0 F9000 X200 Y172.676
G1 F1125 X200 Y207.326 E426.64936
G0 F9000 X202 Y209.084
G1 F1125 X202 Y174.433 E430.52175
G0 F9000 X204 Y176.191
G1 F1125 X204 Y210.841 E434.39402
G0 F9000 X206 Y212.599
G1 F1125 X206 Y177.948 E438.26641
G0 F9000 X208 Y179.706
G1 F1125 X208 Y214.356 E442.13869
G0 F9000 X210 Y215.58
G1 F1125 X210 Y181.464 E445.95129
G0 F9000 X212 Y183.221
G1 F1125 X212 Y215.764 E449.58811
G0 F9000 X214 Y215.083
G1 F1125 X214 Y184.979 E452.95235
G0 F9000 X216 Y186.736
G1 F1125 X216 Y213.11 E455.89975
G0 F9000 X218 Y210.83
G1 F1125 X218 Y188.494 E458.39589
G0 F9000 X220 Y190.252
G1 F1125 X220 Y208.057 E460.38567
G0 F9000 X222 Y206.251
G1 F1125 X222 Y192.009 E461.97727
G0 F9000 X224 Y193.767
G1 F1125 X224 Y204.002 E463.12107
G0 F9000 X226 Y201.712
G1 F1125 X226 Y195.605 E463.80356
G0 F300 X226 Y195.605 Z0.756
G0 F9000 X226.858 Y197.154
;TIME_ELAPSED:242.855048
;LAYER:-4
;TYPE:SUPPORT
G1 F1125 X226.764 Y196.89 E463.8427
G1 X226.646 Y196.615 E463.88451
G1 X226.507 Y196.34 E463.92755
G1 X226.375 Y196.118 E463.96363
G1 X226.197 Y195.855 E464.00799
G1 X226.027 Y195.635 E464.04683
G1 X225.844 Y195.428 E464.08543
G1 X225.547 Y195.131 E464.1441
G1 X225.47 Y195.058 E464.15892
G1 X219.589 Y189.891 E465.25249
G1 X207.921 Y179.636 E467.42249
G1 X227.093 Y198.809 E471.21011
G1 X227.08 Y199.083 E471.24843
G1 X227.048 Y199.38 E471.29016
G1 X227.002 Y199.654 E471.32897
G1 X226.933 Y199.941 E471.37021
G1 X226.904 Y200.034 E471.38381
G1 X196.253 Y169.383 E477.43908
G1 X184.584 Y159.128 E479.60918
G1 X226.48 Y201.024 E487.88594
G1 X226.326 Y201.269 E487.92637
G1 X226.014 Y201.693 E487.99991
G1 X225.89 Y201.848 E488.02763
G1 X172.916 Y148.874 E498.49292
G1 X161.247 Y138.62 E500.66293
G1 X225.229 Y202.602 E513.3029
G1 X224.806 Y203.085 E513.39259
G1 X224.583 Y203.333 E513.43918
G1 X224.566 Y203.353 E513.44284
G1 X149.579 Y128.366 E528.25691
G1 X137.911 Y118.112 E530.42681
G1 X223.906 Y204.107 E547.41556
G1 X223.529 Y204.537 E547.49545
G1 X223.245 Y204.86 E547.55553
G1 X126.243 Y107.858 E566.71877
G1 X114.574 Y97.604 E568.88878
G1 X222.583 Y205.612 E590.22641
G1 X222.247 Y205.993 E590.29737
G1 X222.15 Y206.097 E590.31724
G1 X221.903 Y206.347 E590.36633
G1 X102.905 Y87.349 E613.875
G1 X91.237 Y77.095 E616.0449
G1 X221.111 Y206.969 E641.70217
G1 X220.692 Y207.294 E641.77625
G1 X220.359 Y207.632 E641.84253
G1 X79.569 Y66.841 E669.65641
G1 X67.901 Y56.587 E671.82632
G1 X219.736 Y208.423 E701.8222
G1 X219.421 Y208.974 E701.91086
G1 X219.399 Y209.017 E701.91761
G1 X219.244 Y209.293 E701.96182
G1 X219.224 Y209.324 E701.96698
G1 X56.232 Y46.333 E734.16678
G1 X44.564 Y36.079 E736.33669
G1 X218.614 Y210.128 E770.72106
G1 X217.953 Y210.882 E770.86113
G1 X32.896 Y25.824 E807.42018
G1 X26.735 Y20.41 E808.56591
G1 X26.595 Y20.298 E808.59096
G1 X26.211 Y20.009 E808.6581
G1 X25.964 Y19.847 E808.69936
G1 X25.706 Y19.704 E808.74056
G1 X25.466 Y19.591 E808.77762
G1 X25.178 Y19.477 E808.82089
G1 X25.113 Y19.456 E808.83043
G1 X217.292 Y211.635 E846.79638
G1 X216.632 Y212.389 E846.93636
G1 X23.447 Y19.205 E885.10095
G1 X23.376 Y19.205 E885.11086
G1 X23.257 Y19.208 E885.12749
G1 X23.077 Y19.226 E885.15276
G1 X22.609 Y19.291 E885.21877
G1 X22.316 Y19.354 E885.26063
G1 X22.213 Y19.384 E885.27562
G1 X215.97 Y213.142 E923.5534
G1 X215.309 Y213.895 E923.69337
G1 X21.208 Y19.794 E962.03902
G1 X20.969 Y19.935 E962.07778
G1 X20.767 Y20.071 E962.1118
G1 X20.52 Y20.262 E962.15542
G1 X20.383 Y20.383 E962.18095
G1 X214.615 Y214.615 E1000.55248
G1 X214.459 Y214.752 E1000.58148
G1 X214.237 Y214.922 E1000.62054
G1 X213.992 Y215.087 E1000.6618
G1 X213.79 Y215.204 E1000.69441
G1 X19.69 Y21.104 E1039.03986
G1 X19.028 Y21.857 E1039.17992
G1 X212.786 Y215.615 E1077.4578
G1 X212.692 Y215.642 E1077.47147
G1 X212.349 Y215.712 E1077.52037
G1 X211.924 Y215.772 E1077.58033
G1 X211.741 Y215.79 E1077.60601
G1 X211.622 Y215.794 E1077.62265
G1 X211.552 Y215.794 E1077.63243
G1 X18.367 Y22.61 E1115.79701
G1 X17.706 Y23.363 E1115.93698
G1 X209.885 Y215.542 E1153.90293
G1 X209.82 Y215.521 E1153.91247
G1 X209.532 Y215.407 E1153.95574
G1 X209.293 Y215.294 E1153.99267
G1 X209.034 Y215.151 E1154.034
G1 X208.788 Y214.99 E1154.07507
G1 X208.404 Y214.701 E1154.1422
G1 X208.264 Y214.588 E1154.16733
G1 X202.103 Y209.174 E1155.31306
G1 X17.044 Y24.115 E1191.87242
G1 X16.383 Y24.868 E1192.01238
G1 X190.434 Y198.919 E1226.39705
G1 X178.766 Y188.665 E1228.56695
G1 X15.768 Y25.667 E1260.76804
G1 X15.701 Y25.773 E1260.78556
G1 X15.287 Y26.519 E1260.90474
G1 X15.274 Y26.512 E1260.9068
G1 X15.246 Y26.56 E1260.91457
G1 X167.098 Y178.412 E1290.91371
G1 X155.429 Y168.157 E1293.08381
G1 X14.633 Y27.361 E1320.89878
G1 X14.224 Y27.761 E1320.97869
G1 X13.879 Y28.021 E1321.03904
G1 X143.761 Y157.904 E1346.69799
G1 X132.093 Y147.649 E1348.86799
G1 X13.094 Y28.651 E1372.37675
G1 X12.903 Y28.838 E1372.41409
G1 X12.841 Y28.902 E1372.42654
G1 X12.416 Y29.386 E1372.51652
G1 X120.425 Y137.395 E1393.85425
G1 X108.757 Y127.142 E1396.02406
G1 X11.754 Y30.139 E1415.1875
G1 X11.491 Y30.441 E1415.24344
G1 X11.115 Y30.865 E1415.3226
G1 X11.092 Y30.891 E1415.32745
G1 X97.088 Y116.887 E1432.3164
G1 X85.42 Y106.633 E1434.4863
G1 X10.431 Y31.644 E1449.30076
G1 X9.77 Y32.398 E1449.44084
G1 X73.752 Y96.38 E1462.08081
G1 X62.083 Y86.125 E1464.25091
G1 X9.109 Y33.151 E1474.71619
G1 X9.097 Y33.166 E1474.71888
G1 X8.997 Y33.289 E1474.74102
G1 X8.671 Y33.731 E1474.81774
G1 X8.519 Y33.975 E1474.8579
G1 X50.416 Y75.871 E1483.13477
G1 X38.747 Y65.617 E1485.30477
G1 X8.094 Y34.965 E1491.36033
G1 X8.068 Y35.052 E1491.37302
G1 X7.997 Y35.348 E1491.41554
G1 X7.951 Y35.616 E1491.45352
G1 X7.917 Y35.927 E1491.49723
