;FLAVOR:Marlin
;TIME:3158
;Filament used: 2.38379m
;Layer height: 0.28
;MINX:85.838
;MINY:80.87
;MINZ:0.336
;MAXX:149.162
;MAXY:154.161
;MAXZ:12.106
;Generated with Cura_SteamEngine 4.10.0
M140 S80
M105
M190 S80
M104 S210
M105
M109 S210
M82 ;absolute extrusion mode
; Ender 3 Custom Start G-code
G92 E0 ; Reset Extruder
G28 ; Home all axes
G1 Z2.0 F3000 ; Move Z Axis up little to prevent scratching of Heat Bed
G1 X0.1 Y20 Z0.3 F5000.0 ; Move to start position
G1 X0.1 Y200.0 Z0.3 F1500.0 E15 ; Draw the first line
G1 X0.4 Y200.0 Z0.3 F5000.0 ; Move to side a little
G1 X0.4 Y20 Z0.3 F1500.0 E30 ; Draw the second line
G92 E0 ; Reset Extruder
G1 Z2.0 F3000 ; Move Z Axis up little to prevent scratching of Heat Bed
G1 X5 Y20 Z0.3 F5000.0 ; Move over to prevent blob squish
G92 E0
G92 E0
G1 F2700 E-5
;LAYER_COUNT:39
;LAYER:-5
M107
G0 F9000 X95.837 Y95.892 Z0.336
;TYPE:SUPPORT-INTERFACE
G1 F2700 E0
G1 F1125 X95.892 Y95.837 E0.00869
G1 X96.245 Y95.52 E0.06171
G1 X100.142 Y92.324 E0.62495
G1 X100.436 Y92.103 E0.66605
G1 X100.495 Y92.065 E0.67389
G1 X100.851 Y91.848 E0.72049
G1 X100.965 Y91.783 E0.73515
G1 X105.284 Y89.473 E1.28252
G1 X105.854 Y89.12 E1.35744
G1 X106.384 Y88.69 E1.43371
G1 X106.857 Y88.197 E1.51007
G1 X107.263 Y87.648 E1.58637
G1 X107.596 Y87.052 E1.66267
G1 X107.849 Y86.425 E1.73823
G1 X107.949 Y86.088 E1.77751
G1 X108.022 Y85.811 E1.80953
G1 X108.108 Y85.546 E1.84066
G1 X108.219 Y85.267 E1.87422
G1 X108.341 Y85.009 E1.90611
G1 X108.487 Y84.746 E1.93973
G1 X108.638 Y84.51 E1.97104
G1 X108.809 Y84.275 E2.00352
G1 X109.005 Y84.035 E2.03815
G1 X109.164 Y83.862 E2.0644
G1 X109.45 Y83.586 E2.10882
G1 X109.671 Y83.398 E2.14125
G1 X109.903 Y83.224 E2.17366
G1 X110.149 Y83.065 E2.20639
G1 X110.388 Y82.928 E2.23718
G1 X110.666 Y82.794 E2.27166
G1 X110.936 Y82.683 E2.30429
G1 X111.202 Y82.594 E2.33563
G1 X111.495 Y82.516 E2.36952
G1 X111.758 Y82.461 E2.39955
G1 X112.034 Y82.42 E2.43073
G1 X112.15 Y82.405 E2.4438
G1 X116.967 Y81.93 E2.98473
G1 X117.096 Y81.921 E2.99918
G1 X117.5 Y81.902 E3.04438
G1 X117.904 Y81.921 E3.08958
G1 X118.033 Y81.93 E3.10403
G1 X122.855 Y82.406 E3.64553
G1 X122.945 Y82.417 E3.65566
G1 X123.36 Y82.486 E3.70267
G1 X123.63 Y82.547 E3.73361
G1 X123.908 Y82.629 E3.766
G1 X124.191 Y82.733 E3.79969
G1 X124.448 Y82.846 E3.83107
G1 X124.705 Y82.98 E3.86346
G1 X124.962 Y83.134 E3.89694
G1 X125.184 Y83.287 E3.92707
G1 X125.441 Y83.489 E3.9636
G1 X125.641 Y83.666 E3.99345
G1 X125.824 Y83.848 E4.02229
G1 X126.018 Y84.064 E4.05474
G1 X126.242 Y84.343 E4.09472
G1 X126.409 Y84.58 E4.12712
G1 X126.556 Y84.819 E4.15848
G1 X126.702 Y85.095 E4.19337
G1 X126.817 Y85.354 E4.22504
G1 X126.915 Y85.612 E4.25589
G1 X127 Y85.89 E4.28837
G1 X127.024 Y85.987 E4.29954
G1 X127.221 Y86.627 E4.37437
G1 X127.502 Y87.249 E4.45065
G1 X127.861 Y87.83 E4.52697
G1 X128.288 Y88.362 E4.60321
G1 X128.78 Y88.836 E4.67956
G1 X129.324 Y89.241 E4.75535
G1 X129.719 Y89.475 E4.80666
G1 X134.036 Y91.784 E5.35377
G1 X134.139 Y91.842 E5.36698
G1 X134.497 Y92.06 E5.41382
G1 X134.579 Y92.114 E5.4248
G1 X134.889 Y92.349 E5.46827
G1 X138.755 Y95.52 E6.02705
G1 X139.108 Y95.837 E6.08007
G1 X139.163 Y95.892 E6.08877
G1 X139.48 Y96.245 E6.14179
G1 X142.676 Y100.142 E6.70502
G1 X142.903 Y100.445 E6.74733
G1 X143.158 Y100.861 E6.80186
G1 X143.216 Y100.964 E6.81507
G1 X145.543 Y105.313 E7.36629
G1 X145.739 Y105.719 E7.41667
G1 X145.781 Y105.822 E7.4291
G1 X145.913 Y106.185 E7.47227
G1 X145.945 Y106.284 E7.4839
G1 X147.382 Y111.026 E8.03763
G1 X147.407 Y111.116 E8.04807
G1 X147.509 Y111.525 E8.09518
G1 X147.573 Y111.95 E8.14321
G1 X147.585 Y112.046 E8.15402
G1 X148.069 Y116.954 E8.70517
G1 X148.079 Y117.096 E8.72108
G1 X148.097 Y117.491 E8.76527
G1 X148.095 Y117.572 E8.77432
G1 X148.079 Y117.904 E8.81147
G1 X148.07 Y118.036 E8.82625
G1 X147.586 Y122.945 E9.37751
G1 X147.573 Y123.05 E9.38934
G1 X147.512 Y123.458 E9.43544
G1 X147.499 Y123.519 E9.44241
G1 X147.407 Y123.884 E9.48448
G1 X147.382 Y123.974 E9.49491
G1 X145.945 Y128.716 E10.04865
G1 X145.917 Y128.803 E10.05886
G1 X145.788 Y129.16 E10.10128
G1 X145.743 Y129.272 E10.11477
G1 X145.548 Y129.677 E10.16501
G1 X143.216 Y134.036 E10.71747
G1 X143.158 Y134.139 E10.73068
G1 X142.943 Y134.494 E10.77706
G1 X142.886 Y134.579 E10.7885
G1 X142.649 Y134.893 E10.83247
G1 X139.48 Y138.755 E11.39076
G1 X139.163 Y139.108 E11.44378
G1 X139.108 Y139.163 E11.45248
G1 X138.755 Y139.48 E11.5055
G1 X134.858 Y142.676 E12.06873
G1 X134.555 Y142.903 E12.11104
G1 X134.149 Y143.152 E12.16427
G1 X134.035 Y143.217 E12.17893
G1 X129.716 Y145.527 E12.7263
G1 X129.146 Y145.88 E12.80122
G1 X128.616 Y146.31 E12.8775
G1 X128.143 Y146.803 E12.95385
G1 X127.737 Y147.352 E13.03015
G1 X127.404 Y147.948 E13.10645
G1 X127.151 Y148.575 E13.18201
G1 X127.051 Y148.912 E13.22129
G1 X126.978 Y149.189 E13.25331
G1 X126.892 Y149.454 E13.28444
G1 X126.781 Y149.733 E13.318
G1 X126.659 Y149.991 E13.34989
G1 X126.516 Y150.249 E13.38286
G1 X126.362 Y150.49 E13.41482
G1 X126.193 Y150.723 E13.44699
G1 X125.995 Y150.966 E13.48202
G1 X125.836 Y151.138 E13.50819
G1 X125.55 Y151.414 E13.55261
G1 X125.329 Y151.602 E13.58503
G1 X125.097 Y151.776 E13.61744
G1 X124.851 Y151.935 E13.65018
G1 X124.612 Y152.072 E13.68096
G1 X124.337 Y152.205 E13.7151
G1 X124.064 Y152.317 E13.74808
G1 X123.798 Y152.406 E13.77942
G1 X123.505 Y152.484 E13.81331
G1 X123.242 Y152.539 E13.84334
G1 X122.85 Y152.595 E13.88759
G1 X118.033 Y153.07 E14.42852
G1 X117.904 Y153.079 E14.44297
G1 X117.5 Y153.098 E14.48817
G1 X117.096 Y153.079 E14.53337
G1 X116.967 Y153.07 E14.54782
G1 X112.144 Y152.594 E15.08943
G1 X112.054 Y152.583 E15.09956
G1 X111.64 Y152.514 E15.14646
G1 X111.37 Y152.453 E15.1774
G1 X111.092 Y152.371 E15.20979
G1 X110.809 Y152.267 E15.24348
G1 X110.552 Y152.154 E15.27486
G1 X110.295 Y152.02 E15.30725
G1 X110.038 Y151.866 E15.34073
G1 X109.814 Y151.711 E15.37117
G1 X109.555 Y151.509 E15.40788
G1 X109.36 Y151.335 E15.43708
G1 X109.176 Y151.152 E15.46609
G1 X108.982 Y150.936 E15.49853
G1 X108.758 Y150.657 E15.53852
G1 X108.591 Y150.42 E15.57092
G1 X108.443 Y150.179 E15.60252
G1 X108.298 Y149.905 E15.63717
G1 X108.183 Y149.646 E15.66884
G1 X108.083 Y149.382 E15.70038
G1 X107.998 Y149.103 E15.73298
G1 X107.976 Y149.013 E15.74333
G1 X107.779 Y148.373 E15.81817
G1 X107.498 Y147.751 E15.89444
G1 X107.139 Y147.17 E15.97077
G1 X106.712 Y146.638 E16.047
G1 X106.22 Y146.164 E16.12335
G1 X105.676 Y145.759 E16.19914
G1 X105.281 Y145.525 E16.25045
G1 X100.964 Y143.216 E16.79757
G1 X100.861 Y143.158 E16.81078
G1 X100.445 Y142.903 E16.8653
G1 X100.142 Y142.676 E16.90761
G1 X96.245 Y139.48 E17.47085
G1 X95.892 Y139.163 E17.52387
G1 X95.837 Y139.108 E17.53256
G1 X95.52 Y138.755 E17.58558
G1 X92.324 Y134.858 E18.14882
G1 X92.097 Y134.555 E18.19113
G1 X92.058 Y134.494 E18.19922
G1 X91.842 Y134.139 E18.24566
G1 X91.784 Y134.036 E18.25887
G1 X89.452 Y129.677 E18.81133
G1 X89.257 Y129.272 E18.86157
G1 X89.212 Y129.16 E18.87506
G1 X89.083 Y128.803 E18.91748
G1 X89.055 Y128.716 E18.92769
G1 X87.618 Y123.974 E19.48143
G1 X87.593 Y123.884 E19.49187
G1 X87.501 Y123.519 E19.53393
G1 X87.486 Y123.447 E19.54215
G1 X87.427 Y123.05 E19.587
G1 X87.414 Y122.945 E19.59883
G1 X86.93 Y118.036 E20.15009
G1 X86.921 Y117.904 E20.16487
G1 X86.903 Y117.509 E20.20906
G1 X86.905 Y117.428 E20.21812
G1 X86.921 Y117.096 E20.25526
G1 X86.93 Y116.964 E20.27005
G1 X87.414 Y112.055 E20.82131
G1 X87.427 Y111.95 E20.83313
G1 X87.491 Y111.525 E20.88116
G1 X87.593 Y111.116 E20.92827
G1 X87.618 Y111.026 E20.93871
G1 X89.055 Y106.284 E21.49245
G1 X89.083 Y106.197 E21.50266
G1 X89.215 Y105.832 E21.54604
G1 X89.257 Y105.728 E21.55857
G1 X89.452 Y105.323 E21.6088
G1 X91.784 Y100.964 E22.16127
G1 X91.842 Y100.861 E22.17448
G1 X92.097 Y100.445 E22.22901
G1 X92.351 Y100.107 E22.27626
G1 X95.52 Y96.245 E22.83456
G1 X95.837 Y95.892 E22.88758
G0 F9000 X96 Y95.74
G1 F1125 X96 Y139.259 E27.751
G0 F9000 X98 Y140.919
G1 F1125 X98 Y94.08 E32.98545
G0 F9000 X100 Y92.44
G1 F1125 X100 Y142.559 E38.58645
G0 F9000 X102 Y143.77
G1 F1125 X102 Y91.229 E44.45812
G0 F9000 X104 Y90.159
G1 F1125 X104 Y144.839 E50.56883
G0 F9000 X106 Y146
G1 F1125 X106 Y89.001 E56.9387
G0 F9000 X108 Y85.894
G1 F1125 X108 Y149.109 E64.00323
G0 F9000 X110 Y151.839
G1 F1125 X110 Y83.161 E71.67828
G0 F9000 X112 Y82.425
G1 F1125 X112 Y152.574 E79.51771
G0 F9000 X114 Y152.777
G1 F1125 X114 Y82.222 E87.40252
G0 F9000 X116 Y82.025
G1 F1125 X116 Y152.974 E95.33136
G0 F9000 X118 Y153.073
G1 F1125 X118 Y81.928 E103.2821
G0 F9000 X120 Y82.125
G1 F1125 X120 Y152.877 E111.18892
G0 F9000 X122 Y152.679
G1 F1125 X122 Y82.322 E119.0516
G0 F9000 X124 Y82.663
G1 F1125 X124 Y152.339 E126.83818
G0 F9000 X126 Y150.96
G1 F1125 X126 Y84.044 E134.31631
G0 F9000 X128 Y88.004
G1 F1125 X128 Y146.997 E140.90902
G0 F9000 X130 Y145.376
G1 F1125 X130 Y89.626 E147.13931
G0 F9000 X132 Y90.696
G1 F1125 X132 Y144.306 E153.13044
G0 F9000 X134 Y143.236
G1 F1125 X134 Y91.765 E158.88254
G0 F9000 X136 Y93.261
G1 F1125 X136 Y141.74 E164.30026
G0 F9000 X138 Y140.1
G1 F1125 X138 Y94.901 E169.35143
G0 F9000 X140 Y96.88
G1 F1125 X140 Y138.122 E173.96039
G0 F9000 X142 Y135.684
G1 F1125 X142 Y99.318 E178.02444
G0 F9000 X144 Y102.43
G1 F1125 X144 Y132.571 E181.39282
G0 F9000 X146 Y128.535
G1 F1125 X146 Y106.466 E183.85912
G1 F2700 E178.85912
G0 F9000 X147.019 Y106.157
G0 X148.566 Y111.385
G0 X149.059 Y116.151
G0 X148 Y116.255
G1 F2700 E183.85912
G1 F1125 X148 Y118.746 E184.1375
G1 F2700 E179.1375
G0 F9000 X149.06 Y118.849
G0 X148.533 Y123.769
G0 X146.733 Y129.663
G0 X143.781 Y135.157
G0 X139.828 Y139.947
G0 X125.994 Y152.434
G0 X125.103 Y153.016
G0 X124.107 Y153.425
G0 X122.976 Y153.652
G0 X117.425 Y154.161
G0 X111.439 Y153.561
G0 X110.423 Y153.26
G0 X109.467 Y152.765
G0 X108.639 Y152.119
G0 X95.053 Y139.828
G0 X93.177 Y137.577
G0 X94 Y136.901
G1 F2700 E184.1375
G1 F1125 X94 Y98.097 E188.474
G0 F9000 X92 Y100.603
G1 F1125 X92 Y134.398 E192.25073
G0 F9000 X90 Y130.701
G1 F1125 X90 Y104.298 E195.20138
G1 F2700 E190.20138
G0 F9000 X89.061 Y103.797
G0 X88.221 Y105.452
G0 X86.981 Y109.457
G0 X88 Y109.765
G1 F2700 E195.20138
G1 F1125 X88 Y125.234 E196.9301
G1 F2700 E191.9301
G0 F300 X88 Y125.234 Z0.756
G0 F9000 X86.981 Y125.543
G0 X88.292 Y129.722
G0 X90.848 Y134.545
G0 X92.058 Y134.493
;TIME_ELAPSED:106.399088
;LAYER:-4
;TYPE:SUPPORT
G1 F2700 E196.9301
G1 F1125 X92.097 Y134.554 E196.94021
G1 X92.323 Y134.857 E196.99302
G1 X95.52 Y138.754 E197.69715
G1 X95.837 Y139.107 E197.76342
G1 X95.891 Y139.162 E197.77419
G1 X96.245 Y139.478 E197.84048
G1 X100.141 Y142.675 E198.5445
G1 X100.445 Y142.902 E198.5975
G1 X100.525 Y142.951 E198.61061
G1 X92.044 Y134.471 E200.28597
G1 X91.841 Y134.138 E200.34045
G1 X91.783 Y134.034 E200.35709
G1 X90.357 Y131.369 E200.77931
G1 X103.627 Y144.639 E203.40087
G0 F9000 X105.281 Y145.523
G1 F1125 X105.676 Y145.758 E203.46507
G1 X106.22 Y146.163 E203.55981
G1 X106.712 Y146.636 E203.65515
G1 X107.138 Y147.169 E203.75047
G1 X107.497 Y147.75 E203.84587
G1 X107.778 Y148.372 E203.94122
G1 X107.964 Y148.976 E204.0295
G1 X111.461 Y152.473 E204.72035
G1 X111.64 Y152.513 E204.74597
G1 X112.053 Y152.582 E204.80447
G1 X112.144 Y152.593 E204.81727
G1 X113.088 Y152.686 E204.94978
G1 X89.027 Y128.625 E209.70315
G1 X88.413 Y126.596 E209.99928
G1 X114.657 Y152.841 E215.18402
G1 X116.225 Y152.995 E215.40411
G1 X87.797 Y124.567 E221.02021
G1 X87.618 Y123.973 E221.10687
G1 X87.592 Y123.882 E221.12009
G1 X87.5 Y123.518 E221.17254
G1 X87.486 Y123.446 E221.18278
G1 X87.426 Y123.049 E221.23887
G1 X87.413 Y122.944 E221.25365
G1 X87.394 Y122.749 E221.28102
G1 X117.73 Y153.085 E227.27405
G1 X117.903 Y153.078 E227.29824
G1 X118.033 Y153.068 E227.31645
G1 X119.029 Y152.97 E227.45626
G1 X87.239 Y121.18 E233.73654
G1 X87.085 Y119.612 E233.95663
G1 X120.316 Y152.843 E240.52158
G1 X121.603 Y152.716 E240.70224
G1 X86.93 Y118.042 E247.55217
G1 X86.929 Y118.035 E247.55316
G1 X86.921 Y117.903 E247.57163
G1 X86.903 Y117.508 E247.62686
G1 X86.904 Y117.427 E247.63818
G1 X86.921 Y117.094 E247.68476
G1 X86.929 Y116.963 E247.70309
G1 X86.959 Y116.657 E247.74604
G1 X122.89 Y152.588 E254.8444
G1 X123.241 Y152.538 E254.89392
G1 X123.504 Y152.483 E254.93146
G1 X123.798 Y152.404 E254.97398
G1 X124.039 Y152.323 E255.0095
G1 X87.086 Y115.37 E262.30976
G1 X87.213 Y114.083 E262.49041
G1 X124.98 Y151.85 E269.95148
G1 X125.097 Y151.774 E269.97097
G1 X125.329 Y151.6 E270.01148
G1 X125.55 Y151.413 E270.05192
G1 X125.757 Y151.213 E270.09213
G1 X87.34 Y112.796 E277.6816
G1 X87.413 Y112.053 E277.78589
G1 X87.426 Y111.949 E277.80053
G1 X87.489 Y111.531 E277.85959
G1 X126.395 Y150.436 E285.54557
G1 X126.516 Y150.248 E285.5768
G1 X126.659 Y149.99 E285.618
G1 X126.78 Y149.731 E285.65794
G1 X126.874 Y149.501 E285.69265
G1 X87.799 Y110.426 E293.41211
G1 X88.128 Y109.341 E293.57049
G1 X127.211 Y148.424 E301.29154
G1 X127.404 Y147.947 E301.36342
G1 X127.671 Y147.47 E301.43978
G1 X88.456 Y108.255 E309.18691
G1 X88.785 Y107.17 E309.34529
G1 X128.278 Y146.663 E317.14733
G1 X128.616 Y146.309 E317.21571
G1 X129.014 Y145.985 E317.2874
G1 X89.12 Y106.09 E325.16876
G1 X89.215 Y105.831 E325.2073
G1 X89.257 Y105.727 E325.22297
G1 X89.451 Y105.322 E325.2857
G1 X89.56 Y105.117 E325.31813
G1 X129.881 Y145.437 E333.28365
G1 X130.802 Y144.944 E333.42958
G1 X90.053 Y104.195 E341.47976
G1 X90.546 Y103.274 E341.62568
G1 X131.724 Y144.452 E349.76061
G1 X132.645 Y143.959 E349.90654
G1 X91.039 Y102.353 E358.12602
G1 X91.532 Y101.432 E358.27195
G1 X133.566 Y143.466 E366.57598
G1 X134.034 Y143.215 E366.65016
G1 X134.148 Y143.151 E366.66843
G1 X134.469 Y142.954 E366.72104
G1 X92.044 Y100.529 E375.10232
G1 X92.097 Y100.443 E375.11643
G1 X92.35 Y100.106 E375.17529
G1 X92.659 Y99.73 E375.24328
G1 X135.268 Y142.339 E383.66091
G1 X136.044 Y141.701 E383.80124
G1 X93.296 Y98.953 E392.24633
G1 X93.934 Y98.176 E392.38677
G1 X136.821 Y141.064 E400.85942
G1 X137.598 Y140.427 E400.99977
G1 X94.571 Y97.399 E409.50007
G1 X95.209 Y96.623 E409.64041
G1 X138.375 Y139.789 E418.16807
G1 X138.754 Y139.478 E418.23656
G1 X139.108 Y139.162 E418.30285
G1 X139.135 Y139.135 E418.30818
G1 X95.863 Y95.863 E426.85679
G1 X95.89 Y95.837 E426.86202
G1 X96.244 Y95.52 E426.9284
G1 X96.624 Y95.209 E426.997
G1 X139.79 Y138.375 E435.52466
G1 X140.427 Y137.599 E435.66491
G1 X97.401 Y94.572 E444.16501
G1 X98.178 Y93.935 E444.30537
G1 X141.064 Y136.822 E452.77782
G1 X141.702 Y136.045 E452.91826
G1 X98.954 Y93.297 E461.36335
G1 X99.731 Y92.66 E461.5037
G1 X142.339 Y135.268 E469.92113
G1 X142.648 Y134.892 E469.98911
G1 X142.885 Y134.579 E470.04396
G1 X142.942 Y134.493 E470.05837
G1 X142.956 Y134.471 E470.06201
G1 X100.529 Y92.044 E478.44368
G1 X100.85 Y91.847 E478.4963
G1 X100.964 Y91.783 E478.51456
G1 X101.432 Y91.532 E478.58874
G1 X143.466 Y133.566 E486.89278
G1 X143.959 Y132.645 E487.03871
G1 X102.353 Y91.039 E495.25818
G1 X103.275 Y90.547 E495.40417
G1 X144.452 Y131.724 E503.5389
G1 X144.945 Y130.803 E503.68483
G1 X104.196 Y90.054 E511.735
G1 X105.117 Y89.561 E511.88093
G1 X145.438 Y129.882 E519.84655
G1 X145.547 Y129.677 E519.87899
G1 X145.741 Y129.271 E519.94184
G1 X145.787 Y129.16 E519.95863
G1 X145.878 Y128.908 E519.99605
G1 X105.984 Y89.014 E527.87732
G1 X106.383 Y88.69 E527.94912
G1 X106.721 Y88.336 E528.01749
G1 X146.213 Y127.828 E535.81934
G1 X146.542 Y126.743 E535.97772
G1 X107.327 Y87.528 E543.72484
G1 X107.594 Y87.051 E543.8012
G1 X107.787 Y86.574 E543.87309
G1 X146.871 Y125.657 E551.59423
G1 X147.199 Y124.572 E551.75257
G1 X108.125 Y85.498 E559.47184
G1 X108.218 Y85.267 E559.50663
G1 X108.34 Y85.009 E559.54649
G1 X108.486 Y84.746 E559.58851
G1 X108.603 Y84.562 E559.61897
G1 X147.509 Y123.467 E567.30496
G1 X147.51 Y123.458 E567.30622
G1 X147.572 Y123.05 E567.36387
G1 X147.585 Y122.945 E567.37865
G1 X147.658 Y122.202 E567.48294
G1 X109.242 Y83.786 E575.07222
G1 X109.449 Y83.586 E575.11243
G1 X109.67 Y83.398 E575.15296
G1 X109.902 Y83.224 E575.19347
G1 X110.018 Y83.148 E575.21284
G1 X147.786 Y120.915 E582.674
G1 X147.912 Y119.628 E582.85465
G1 X110.959 Y82.675 E590.1549
G1 X111.201 Y82.594 E590.19055
G1 X111.494 Y82.515 E590.23294
G1 X111.757 Y82.46 E590.27048
G1 X112.033 Y82.419 E590.30946
