;FLAVOR:Marlin
;TIME:13586
;Filament used: 9.8491m
;Layer height: 0.28
;MINX:83.341
;MINY:61.836
;MINZ:0.336
;MAXX:151.662
;MAXY:173.164
;MAXZ:96.106
;Generated with Cura_SteamEngine 4.10.0
M140 S80
M105
M190 S80
M104 S210
M105
M109 S210
M82 ;absolute extrusion mode
; Ender 3 Custom Start G-code
G92 E0 ; Reset Extruder
G28 ; Home all axes
G1 Z2.0 F3000 ; Move Z Axis up little to prevent scratching of Heat Bed
G1 X0.1 Y20 Z0.3 F5000.0 ; Move to start position
G1 X0.1 Y200.0 Z0.3 F1500.0 E15 ; Draw the first line
G1 X0.4 Y200.0 Z0.3 F5000.0 ; Move to side a little
G1 X0.4 Y20 Z0.3 F1500.0 E30 ; Draw the second line
G92 E0 ; Reset Extruder
G1 Z2.0 F3000 ; Move Z Axis up little to prevent scratching of Heat Bed
G1 X5 Y20 Z0.3 F5000.0 ; Move over to prevent blob squish
G92 E0
G92 E0
G1 F2700 E-5
;LAYER_COUNT:339
;LAYER:-5
M107
G0 F9000 X90.196 Y65.044 Z0.336
;TYPE:SUPPORT-INTERFACE
G1 F2700 E0
G1 F1125 X90.394 Y64.778 E0.03706
G1 X90.698 Y64.424 E0.0892
G1 X90.909 Y64.209 E0.12287
G1 X91.204 Y63.95 E0.16674
G1 X91.419 Y63.783 E0.19716
G1 X91.65 Y63.627 E0.22831
G1 X91.918 Y63.469 E0.26308
G1 X92.175 Y63.339 E0.29527
G1 X92.445 Y63.223 E0.32811
G1 X92.701 Y63.131 E0.35851
G1 X92.993 Y63.047 E0.39246
G1 X93.254 Y62.991 E0.4223
G1 X93.574 Y62.943 E0.45846
G1 X94.042 Y62.907 E0.51091
G1 X94.234 Y62.9 E0.53238
G1 X95.914 Y62.9 E0.72013
G1 X96.067 Y62.904 E0.73723
G1 X96.399 Y62.92 E0.77438
G1 X96.541 Y62.93 E0.79029
G1 X106.133 Y63.876 E1.86743
G1 X106.233 Y63.888 E1.87869
G1 X106.637 Y63.948 E1.92433
G1 X107.074 Y64.055 E1.97461
G1 X116.37 Y66.873 E3.06016
G1 X116.542 Y66.93 E3.08041
G1 X116.856 Y67.043 E3.11771
G1 X116.958 Y67.085 E3.13003
G1 X117.252 Y67.225 E3.16642
G1 X117.398 Y67.3 E3.18477
G1 X125.862 Y71.824 E4.25729
G1 X125.976 Y71.889 E4.27196
G1 X126.335 Y72.107 E4.31889
G1 X126.413 Y72.159 E4.32937
G1 X126.719 Y72.39 E4.37222
G1 X134.225 Y78.55 E5.45736
G1 X134.578 Y78.867 E5.51038
G1 X134.633 Y78.922 E5.51907
G1 X134.95 Y79.275 E5.57209
G1 X141.131 Y86.808 E6.66105
G1 X141.358 Y87.111 E6.70336
G1 X141.393 Y87.164 E6.71046
G1 X141.603 Y87.51 E6.75569
G1 X141.675 Y87.638 E6.77211
G1 X146.197 Y96.096 E7.84393
G1 X146.275 Y96.248 E7.86303
G1 X146.431 Y96.577 E7.90372
G1 X146.457 Y96.644 E7.91175
G1 X146.57 Y96.958 E7.94904
G1 X146.624 Y97.12 E7.96813
G1 X149.424 Y106.351 E9.04614
G1 X149.445 Y106.426 E9.05484
G1 X149.552 Y106.863 E9.10512
G1 X149.612 Y107.267 E9.15077
G1 X149.624 Y107.362 E9.16147
G1 X150.569 Y116.953 E10.23849
G1 X150.579 Y117.096 E10.25451
G1 X150.597 Y117.491 E10.2987
G1 X150.595 Y117.572 E10.30775
G1 X150.579 Y117.904 E10.3449
G1 X150.57 Y118.037 E10.3598
G1 X149.625 Y127.629 E11.43693
G1 X149.612 Y127.733 E11.44864
G1 X149.552 Y128.137 E11.49429
G1 X149.448 Y128.563 E11.54329
G1 X149.426 Y128.641 E11.55235
G1 X146.627 Y137.87 E12.63012
G1 X146.574 Y138.031 E12.64906
G1 X146.424 Y138.439 E12.69764
G1 X146.275 Y138.752 E12.73638
G1 X146.2 Y138.898 E12.75472
G1 X141.675 Y147.362 E13.8273
G1 X141.613 Y147.473 E13.84151
G1 X141.397 Y147.829 E13.88804
G1 X141.334 Y147.923 E13.90069
G1 X141.104 Y148.227 E13.94329
G1 X134.95 Y155.725 E15.02731
G1 X134.633 Y156.078 E15.08034
G1 X134.578 Y156.133 E15.08903
G1 X134.225 Y156.45 E15.14205
G1 X126.692 Y162.631 E16.23101
G1 X126.389 Y162.858 E16.27332
G1 X126.335 Y162.893 E16.28051
G1 X125.976 Y163.112 E16.32751
G1 X125.862 Y163.175 E16.34206
G1 X117.404 Y167.697 E17.41389
G1 X117.252 Y167.775 E17.43298
G1 X116.926 Y167.93 E17.47332
G1 X116.542 Y168.07 E17.519
G1 X116.369 Y168.127 E17.53936
G1 X107.074 Y170.945 E18.6248
G1 X106.63 Y171.054 E18.67589
G1 X106.233 Y171.112 E18.72073
G1 X106.133 Y171.124 E18.73198
G1 X96.541 Y172.07 E19.80913
G1 X96.399 Y172.08 E19.82504
G1 X96.067 Y172.096 E19.86218
G1 X95.914 Y172.1 E19.87929
G1 X94.193 Y172.1 E20.07162
G1 X94.067 Y172.096 E20.08571
G1 X93.69 Y172.072 E20.12792
G1 X93.392 Y172.035 E20.16148
G1 X93.108 Y171.98 E20.19381
G1 X92.817 Y171.904 E20.22742
G1 X92.557 Y171.819 E20.25799
G1 X92.28 Y171.709 E20.2913
G1 X92.021 Y171.586 E20.32334
G1 X91.761 Y171.442 E20.35655
G1 X91.544 Y171.304 E20.38529
G1 X91.269 Y171.099 E20.42362
G1 X90.923 Y170.802 E20.47458
G1 X90.709 Y170.591 E20.50817
G1 X90.45 Y170.296 E20.55204
G1 X90.283 Y170.081 E20.58246
G1 X90.126 Y169.848 E20.61386
G1 X89.969 Y169.582 E20.64838
G1 X89.839 Y169.325 E20.68056
G1 X89.723 Y169.055 E20.71341
G1 X89.631 Y168.799 E20.74381
G1 X89.547 Y168.507 E20.77776
G1 X89.488 Y168.235 E20.80887
G1 X89.441 Y167.915 E20.84501
G1 X89.423 Y167.682 E20.87113
G1 X89.33 Y167.018 E20.94606
G1 X89.149 Y166.359 E21.02243
G1 X88.888 Y165.728 E21.09874
G1 X88.549 Y165.135 E21.17507
G1 X88.137 Y164.591 E21.25134
G1 X87.661 Y164.102 E21.3276
G1 X87.242 Y163.769 E21.38741
G1 X87.251 Y163.755 E21.38927
G1 X86.532 Y163.296 E21.4846
G1 X86.278 Y163.107 E21.51998
G1 X85.908 Y162.786 E21.57472
G1 X85.67 Y162.549 E21.61226
G1 X85.435 Y162.275 E21.6526
G1 X85.261 Y162.047 E21.68465
G1 X85.098 Y161.805 E21.71726
G1 X84.952 Y161.552 E21.7499
G1 X84.826 Y161.297 E21.78169
G1 X84.71 Y161.02 E21.81525
G1 X84.615 Y160.748 E21.84745
G1 X84.537 Y160.464 E21.88036
G1 X84.482 Y160.201 E21.91039
G1 X84.438 Y159.892 E21.94527
G1 X84.406 Y159.449 E21.9949
G1 X84.4 Y159.271 E22.01481
G1 X84.4 Y155.693 E22.41466
G1 X84.404 Y155.567 E22.42875
G1 X84.428 Y155.19 E22.47097
G1 X84.465 Y154.892 E22.50453
G1 X84.52 Y154.608 E22.53685
G1 X84.596 Y154.317 E22.57046
G1 X84.68 Y154.059 E22.60079
G1 X84.791 Y153.78 E22.63434
G1 X84.913 Y153.522 E22.66624
G1 X85.059 Y153.259 E22.69985
G1 X85.196 Y153.044 E22.72834
G1 X85.394 Y152.778 E22.7654
G1 X85.698 Y152.424 E22.81755
G1 X85.909 Y152.209 E22.85121
G1 X86.204 Y151.95 E22.89508
G1 X86.419 Y151.783 E22.92551
G1 X86.667 Y151.615 E22.95898
G1 X86.753 Y151.565 E22.9701
G1 X87.307 Y151.189 E23.04492
G1 X87.82 Y150.737 E23.12133
G1 X88.271 Y150.225 E23.19758
G1 X88.654 Y149.66 E23.27386
G1 X88.962 Y149.051 E23.35013
G1 X89.192 Y148.408 E23.42645
G1 X89.339 Y147.738 E23.5031
G1 X89.4 Y146.935 E23.5931
G1 X89.4 Y88.074 E30.17106
G1 X89.358 Y87.406 E30.24586
G1 X89.229 Y86.735 E30.32222
G1 X89.016 Y86.086 E30.39855
G1 X88.724 Y85.469 E30.47484
G1 X88.355 Y84.892 E30.55138
G1 X87.83 Y84.279 E30.64157
G1 X87.809 Y84.258 E30.64489
G1 X87.308 Y83.818 E30.71941
G1 X86.915 Y83.541 E30.77314
G1 X86.532 Y83.296 E30.82395
G1 X86.278 Y83.107 E30.85933
G1 X85.908 Y82.786 E30.91407
G1 X85.67 Y82.549 E30.95161
G1 X85.435 Y82.275 E30.99195
G1 X85.261 Y82.047 E31.024
G1 X85.098 Y81.805 E31.05661
G1 X84.952 Y81.552 E31.08925
G1 X84.826 Y81.297 E31.12104
G1 X84.71 Y81.02 E31.1546
G1 X84.615 Y80.748 E31.18679
G1 X84.537 Y80.464 E31.21971
G1 X84.482 Y80.201 E31.24974
G1 X84.438 Y79.892 E31.28462
G1 X84.406 Y79.449 E31.33425
G1 X84.4 Y79.271 E31.35416
G1 X84.4 Y75.693 E31.75401
G1 X84.404 Y75.567 E31.7681
G1 X84.428 Y75.19 E31.81032
G1 X84.465 Y74.892 E31.84387
G1 X84.52 Y74.608 E31.8762
G1 X84.596 Y74.317 E31.90981
G1 X84.68 Y74.059 E31.94014
G1 X84.791 Y73.78 E31.97369
G1 X84.913 Y73.522 E32.00559
G1 X85.059 Y73.259 E32.0392
G1 X85.196 Y73.044 E32.06769
G1 X85.394 Y72.778 E32.10475
G1 X85.698 Y72.424 E32.1569
G1 X85.909 Y72.209 E32.19056
G1 X86.204 Y71.95 E32.23443
G1 X86.419 Y71.783 E32.26486
G1 X86.652 Y71.625 E32.29632
G1 X86.794 Y71.542 E32.3147
G1 X87.347 Y71.164 E32.38956
G1 X87.859 Y70.713 E32.46581
G1 X88.309 Y70.2 E32.54207
G1 X88.692 Y69.634 E32.61844
G1 X88.999 Y69.025 E32.69466
G1 X89.228 Y68.381 E32.77104
G1 X89.373 Y67.718 E32.84689
G1 X89.449 Y67.016 E32.9258
G1 X89.465 Y66.893 E32.93966
G1 X89.521 Y66.601 E32.97288
G1 X89.596 Y66.317 E33.00571
G1 X89.68 Y66.059 E33.03603
G1 X89.791 Y65.78 E33.06959
G1 X89.913 Y65.522 E33.10148
G1 X90.059 Y65.259 E33.1351
G1 X90.196 Y65.044 E33.16359
G0 F9000 X90 Y65.365
G1 F1125 X90 Y169.634 E44.81607
G0 F9000 X92 Y171.574
G1 F1125 X92 Y63.427 E56.90194
G0 F9000 X94 Y62.91
G1 F1125 X94 Y172.091 E69.10336
G0 F9000 X96 Y172.098
G1 F1125 X96 Y62.903 E81.30634
G0 F9000 X98 Y63.074
G1 F1125 X98 Y171.927 E93.47111
G0 F9000 X100 Y171.729
G1 F1125 X100 Y63.272 E105.59162
G0 F9000 X102 Y63.469
G1 F1125 X102 Y171.532 E117.66809
G0 F9000 X104 Y171.335
G1 F1125 X104 Y63.666 E129.70054
G0 F9000 X106 Y63.863
G1 F1125 X106 Y171.138 E141.68896
G0 F9000 X108 Y170.665
G1 F1125 X108 Y64.336 E153.57165
G0 F9000 X110 Y64.942
G1 F1125 X110 Y170.058 E165.31879
G0 F9000 X112 Y169.452
G1 F1125 X112 Y65.549 E176.93037
G0 F9000 X114 Y66.155
G1 F1125 X114 Y168.846 E188.40651
G0 F9000 X116 Y168.239
G1 F1125 X116 Y66.761 E199.74709
G0 F9000 X118 Y67.622
G1 F1125 X118 Y167.379 E210.89534
G0 F9000 X120 Y166.31
G1 F1125 X120 Y68.691 E221.80466
G0 F9000 X122 Y69.76
G1 F1125 X122 Y165.24 E232.47493
G0 F9000 X124 Y164.171
G1 F1125 X124 Y70.829 E242.90628
G0 F9000 X126 Y71.904
G1 F1125 X126 Y163.098 E253.09758
G0 F9000 X128 Y161.558
G1 F1125 X128 Y73.442 E262.9449
G0 F9000 X130 Y75.083
G1 F1125 X130 Y159.917 E272.42544
G0 F9000 X132 Y158.276
G1 F1125 X132 Y76.724 E281.53921
G0 F9000 X134 Y78.366
G1 F1125 X134 Y156.635 E290.28609
G0 F9000 X136 Y154.446
G1 F1125 X136 Y80.555 E298.54371
G0 F9000 X138 Y82.993
G1 F1125 X138 Y152.009 E306.25652
G0 F9000 X140 Y149.573
G1 F1125 X140 Y85.43 E313.42476
G0 F9000 X142 Y88.246
G1 F1125 X142 Y146.755 E319.96338
G0 F9000 X144 Y143.014
G1 F1125 X144 Y91.987 E325.66586
G0 F9000 X146 Y95.728
G1 F1125 X146 Y139.273 E330.53219
G1 F2700 E325.53219
G0 F9000 X147.226 Y139.229
G0 X147.561 Y138.394
G0 X149.02 Y133.651
G0 X148 Y133.343
G1 F2700 E330.53219
G1 F1125 X148 Y101.657 E334.07323
G1 F2700 E329.07323
G0 F9000 X149.019 Y101.348
G0 X150.605 Y106.704
G0 X151.058 Y111.075
G0 X150 Y111.179
G1 F2700 E334.07323
G1 F1125 X150 Y123.823 E335.48624
G1 F2700 E330.48624
G0 F9000 X151.059 Y123.926
G0 X150.567 Y128.473
G0 X147.408 Y138.846
G0 X142.236 Y148.491
G0 X135.298 Y156.917
G0 X126.896 Y163.797
G0 X117.226 Y168.955
G0 X106.798 Y172.105
G0 X95.932 Y173.164
G0 X93.588 Y173.132
G0 X92.521 Y172.927
G0 X91.524 Y172.528
G0 X90.605 Y171.932
G0 X89.915 Y171.3
G0 X89.22 Y170.408
G0 X84.009 Y162.046
G0 X83.597 Y161.061
G0 X83.379 Y160.003
G0 X83.341 Y155.523
G0 X83.48 Y154.375
G0 X83.81 Y153.367
G0 X84.323 Y152.435
G0 X85.112 Y151.517
G0 X87.428 Y149.572
G0 X88 Y150.532
G1 F2700 E335.48624
G1 F1125 X88 Y164.45 E337.04164
G0 F9000 X86 Y162.865
G1 F1125 X86 Y152.129 E338.24143
G1 F2700 E333.24143
G0 F9000 X85.517 Y151.137
G0 X87.497 Y85.528
G0 X88 Y84.477
G1 F2700 E338.24143
G1 F1125 X88 Y70.552 E339.7976
G0 F9000 X86 Y72.129
G1 F1125 X86 Y82.865 E340.9974
G1 F2700 E335.9974
G0 F300 X86 Y82.865 Z0.756
G0 F9000 X85.303 Y83.671
G0 X84.61 Y82.95
G0 X84.009 Y82.046
G0 X83.597 Y81.061
G0 X83.379 Y80.003
G0 X83.341 Y75.523
G0 X83.48 Y74.375
G0 X83.81 Y73.367
G0 X84.323 Y72.435
G0 X89.566 Y64.108
G0 X90.2 Y63.415
G0 X91.092 Y62.72
G0 X92.045 Y62.236
G0 X93.065 Y61.942
G0 X94.209 Y61.836
G0 X96.626 Y61.869
G0 X106.862 Y62.907
G0 X116.677 Y65.853
G0 X116.369 Y66.873
;TIME_ELAPSED:177.689119
;LAYER:-4
;TYPE:SUPPORT
G1 F2700 E340.9974
G1 F1125 X114.341 Y66.258 E341.29343
G1 X147.242 Y99.158 E347.79309
G1 X147.858 Y101.189 E348.08957
G1 X112.312 Y65.643 E355.11187
G1 X110.282 Y65.027 E355.40821
G1 X148.474 Y103.219 E362.95324
G1 X149.089 Y105.249 E363.24954
G1 X108.253 Y64.412 E371.317
G1 X107.073 Y64.054 E371.48926
G1 X106.635 Y63.947 E371.55224
G1 X106.329 Y63.902 E371.59545
G1 X149.596 Y107.17 E380.14316
G1 X149.611 Y107.266 E380.15674
G1 X149.623 Y107.362 E380.17025
G1 X149.76 Y108.748 E380.36481
G1 X104.752 Y63.74 E389.25637
G1 X103.183 Y63.585 E389.47661
G1 X149.914 Y110.316 E398.70856
G1 X150.069 Y111.885 E398.92881
G1 X101.614 Y63.431 E408.50124
G1 X100.045 Y63.276 E408.72149
G1 X150.224 Y113.454 E418.63451
G1 X150.378 Y115.022 E418.8546
G1 X98.476 Y63.121 E429.108
G1 X96.908 Y62.967 E429.3281
G1 X150.533 Y116.592 E439.92199
G1 X150.568 Y116.952 E439.97252
G1 X150.578 Y117.095 E439.99254
G1 X150.596 Y117.49 E440.04778
G1 X150.593 Y117.572 E440.05924
G1 X150.578 Y117.904 E440.10566
G1 X150.569 Y118.036 E440.12415
G1 X150.569 Y118.042 E440.12499
G1 X95.426 Y62.899 E451.01877
G1 X94.233 Y62.899 E451.18542
G1 X94.04 Y62.907 E451.2124
G1 X94.021 Y62.909 E451.21507
G1 X150.441 Y119.329 E462.36113
G1 X150.315 Y120.616 E462.54178
G1 X92.8 Y63.102 E473.90406
G1 X92.7 Y63.13 E473.91857
G1 X92.444 Y63.222 E473.95657
G1 X92.174 Y63.339 E473.99767
G1 X91.917 Y63.469 E474.03791
G1 X91.814 Y63.53 E474.05463
G1 X150.188 Y121.904 E485.58671
G1 X150.062 Y123.192 E485.7675
G1 X90.999 Y64.129 E497.43569
G1 X90.907 Y64.208 E497.45263
G1 X90.814 Y64.296 E497.47052
G1 X90.697 Y64.423 E497.49464
G1 X90.393 Y64.778 E497.55993
G1 X90.325 Y64.869 E497.5758
G1 X149.934 Y124.479 E509.35196
G1 X149.808 Y125.766 E509.5326
G1 X89.8 Y65.758 E521.38749
G1 X89.79 Y65.78 E521.39087
G1 X89.679 Y66.059 E521.43281
G1 X89.595 Y66.317 E521.47072
G1 X89.519 Y66.6 E521.51165
G1 X89.472 Y66.844 E521.54636
G1 X149.681 Y127.054 E533.44106
G1 X149.624 Y127.629 E533.52177
G1 X149.611 Y127.733 E533.53642
G1 X149.55 Y128.136 E533.59335
G1 X149.512 Y128.298 E533.6166
G1 X89.292 Y68.079 E545.51327
G1 X89.227 Y68.38 E545.55628
G1 X88.997 Y69.024 E545.65181
G1 X88.939 Y69.14 E545.66993
G1 X149.196 Y129.397 E557.57401
G1 X148.867 Y130.483 E557.73252
G1 X88.419 Y70.034 E569.67443
G1 X88.307 Y70.2 E569.70241
G1 X87.858 Y70.712 E569.79754
G1 X87.766 Y70.795 E569.81484
G1 X148.538 Y131.567 E581.82066
G1 X148.209 Y132.653 E581.97918
G1 X86.974 Y71.418 E594.07647
G1 X86.793 Y71.542 E594.10712
G1 X86.65 Y71.624 E594.13014
G1 X86.418 Y71.782 E594.16935
G1 X86.203 Y71.949 E594.20738
G1 X86.143 Y72.001 E594.21848
G1 X147.88 Y133.737 E606.41484
G1 X147.551 Y134.823 E606.57335
G1 X85.444 Y72.716 E618.84291
G1 X85.393 Y72.778 E618.85412
G1 X85.195 Y73.044 E618.90044
G1 X85.057 Y73.259 E618.93613
G1 X84.912 Y73.522 E618.97809
G1 X84.887 Y73.573 E618.98602
G1 X147.221 Y135.908 E631.30052
G1 X146.892 Y136.993 E631.4589
G1 X84.516 Y74.617 E643.7816
G1 X84.464 Y74.891 E643.82056
G1 X84.427 Y75.189 E643.86251
G1 X84.403 Y75.567 E643.91542
G1 X84.398 Y75.692 E643.93289
G1 X84.398 Y75.913 E643.96376
G1 X146.558 Y138.073 E656.24379
G1 X146.423 Y138.438 E656.29815
G1 X146.274 Y138.752 E656.34671
G1 X146.199 Y138.897 E656.36951
G1 X146.119 Y139.048 E656.39338
G1 X84.398 Y77.327 E668.58668
G1 X84.398 Y78.741 E668.78421
G1 X145.626 Y139.969 E680.88011
G1 X145.134 Y140.891 E681.0261
G1 X84.491 Y80.248 E693.00643
G1 X84.536 Y80.463 E693.03712
G1 X84.614 Y80.748 E693.07839
G1 X84.709 Y81.019 E693.11851
G1 X84.825 Y81.296 E693.16046
G1 X84.951 Y81.552 E693.20032
G1 X85.097 Y81.805 E693.24112
G1 X85.26 Y82.047 E693.28188
G1 X85.434 Y82.274 E693.32184
G1 X85.668 Y82.549 E693.37228
G1 X85.763 Y82.65 E693.39165
G1 X85.907 Y82.785 E693.41922
G1 X86.277 Y83.106 E693.48765
G1 X86.531 Y83.295 E693.53187
G1 X86.914 Y83.541 E693.59546
G1 X87.307 Y83.818 E693.66263
G1 X87.807 Y84.258 E693.75567
G1 X87.829 Y84.279 E693.75992
G1 X88.354 Y84.892 E693.87266
G1 X88.723 Y85.469 E693.96834
G1 X89.014 Y86.086 E694.06363
G1 X89.063 Y86.235 E694.08554
G1 X144.641 Y141.813 E705.06526
G1 X144.148 Y142.734 E705.21119
G1 X89.393 Y87.978 E716.02842
G1 X89.399 Y88.074 E716.04186
G1 X89.399 Y89.399 E716.22695
G1 X143.656 Y143.656 E726.9457
G1 X143.163 Y144.577 E727.09163
G1 X89.399 Y90.813 E737.71298
G1 X89.399 Y92.227 E737.91051
G1 X142.67 Y145.499 E748.43456
G1 X142.178 Y146.421 E748.58055
G1 X89.399 Y93.642 E759.00731
G1 X89.399 Y95.056 E759.20484
G1 X141.685 Y147.342 E769.53421
G1 X141.675 Y147.361 E769.5372
G1 X141.612 Y147.472 E769.55503
G1 X141.396 Y147.828 E769.6132
G1 X141.333 Y147.922 E769.62901
G1 X141.126 Y148.197 E769.67709
G1 X89.399 Y96.47 E779.89603
G1 X89.399 Y97.884 E780.09355
G1 X140.489 Y148.974 E790.18664
G1 X139.852 Y149.751 E790.327
G1 X89.399 Y99.299 E800.29415
G1 X89.399 Y100.713 E800.49167
G1 X139.214 Y150.528 E810.33288
G1 X138.577 Y151.305 E810.47324
G1 X89.399 Y102.127 E820.1886
G1 X89.399 Y103.541 E820.38613
G1 X137.939 Y152.081 E829.97545
G1 X137.302 Y152.858 E830.11581
G1 X89.399 Y104.955 E839.57929
G1 X89.399 Y106.37 E839.77695
G1 X136.665 Y153.635 E849.1145
G1 X136.027 Y154.412 E849.25494
